; generated by Slic3r 1.3.0-dev on 2016-11-25 at 09:42:23

; external perimeters extrusion width = 0.30mm
; perimeters extrusion width = 0.51mm
; infill extrusion width = 0.73mm
; solid infill extrusion width = 0.51mm
; top infill extrusion width = 0.51mm

M107
G28
G29

G21 ; set units to millimeters
G90 ; use absolute coordinates
M82 ; use absolute distances for extrusion
G92 E0
G1 Z0.000 F3600.000
G1 X0.353 Y0.141 F3600.000
G1 F3600
G1 X0.353 Y99.859 E0.07058
G1 X1.063 Y99.859 E0.07108
G1 X1.063 Y0.141 E0.14165
G1 X1.772 Y0.141 E0.14216
G1 X1.772 Y99.859 E0.21273
G1 X2.481 Y99.859 E0.21323
G1 X2.481 Y0.141 E0.28381
G1 X3.190 Y0.141 E0.28431
G1 X3.190 Y99.859 E0.35489
G1 X3.900 Y99.859 E0.35539
G1 X3.900 Y0.141 E0.42597
G1 X4.609 Y0.141 E0.42647
G1 X4.609 Y99.859 E0.49704
G1 X5.318 Y99.859 E0.49755
G1 X5.318 Y0.141 E0.56812
G1 X6.027 Y0.141 E0.56862
G1 X6.027 Y99.859 E0.63920
G1 X6.736 Y99.859 E0.63970
G1 X6.736 Y0.141 E0.71028
G1 X7.446 Y0.141 E0.71078
G1 X7.446 Y99.859 E0.78136
G1 X8.155 Y99.859 E0.78186
G1 X8.155 Y0.141 E0.85243
G1 X8.864 Y0.141 E0.85294
G1 X8.864 Y99.859 E0.92351
G1 X9.573 Y99.859 E0.92401
G1 X9.573 Y0.141 E0.99459
G1 X10.283 Y0.141 E0.99509
G1 X10.283 Y99.859 E1.06567
G1 X10.992 Y99.859 E1.06617
G1 X10.992 Y0.141 E1.13675
G1 X11.701 Y0.141 E1.13725
G1 X11.701 Y99.859 E1.20782
G1 X12.410 Y99.859 E1.20833
G1 X12.410 Y0.141 E1.27890
G1 X13.120 Y0.141 E1.27940
G1 X13.120 Y99.859 E1.34998
G1 X13.829 Y99.859 E1.35048
G1 X13.829 Y0.141 E1.42106
G1 X14.538 Y0.141 E1.42156
G1 X14.538 Y99.859 E1.49214
G1 X15.247 Y99.859 E1.49264
G1 X15.247 Y0.141 E1.56321
G1 X15.957 Y0.141 E1.56372
G1 X15.957 Y99.859 E1.63429
G1 X16.666 Y99.859 E1.63480
G1 X16.666 Y0.141 E1.70537
G1 X17.375 Y0.141 E1.70587
G1 X17.375 Y99.859 E1.77645
G1 X18.084 Y99.859 E1.77695
G1 X18.084 Y0.141 E1.84753
G1 X18.794 Y0.141 E1.84803
G1 X18.794 Y99.859 E1.91861
G1 X19.503 Y99.859 E1.91911
G1 X19.503 Y0.141 E1.98968
G1 X20.212 Y0.141 E1.99019
G1 X20.212 Y99.859 E2.06076
G1 X20.921 Y99.859 E2.06126
G1 X20.921 Y0.141 E2.13184
G1 X21.630 Y0.141 E2.13234
G1 X21.630 Y99.859 E2.20292
G1 X22.340 Y99.859 E2.20342
G1 X22.340 Y0.141 E2.27400
G1 X23.049 Y0.141 E2.27450
G1 X23.049 Y99.859 E2.34507
G1 X23.758 Y99.859 E2.34558
G1 X23.758 Y0.141 E2.41615
G1 X24.467 Y0.141 E2.41665
G1 X24.467 Y99.859 E2.48723
G1 X25.177 Y99.859 E2.48773
G1 X25.177 Y0.141 E2.55831
G1 X25.886 Y0.141 E2.55881
G1 X25.886 Y99.859 E2.62939
G1 X26.595 Y99.859 E2.62989
G1 X26.595 Y0.141 E2.70046
G1 X27.304 Y0.141 E2.70097
G1 X27.304 Y99.859 E2.77154
G1 X28.014 Y99.859 E2.77204
G1 X28.014 Y0.141 E2.84262
G1 X28.723 Y0.141 E2.84312
G1 X28.723 Y99.859 E2.91370
G1 X29.432 Y99.859 E2.91420
G1 X29.432 Y0.141 E2.98478
G1 X30.141 Y0.141 E2.98528
G1 X30.141 Y99.859 E3.05585
G1 X30.851 Y99.859 E3.05636
G1 X30.851 Y0.141 E3.12693
G1 X31.560 Y0.141 E3.12743
G1 X31.560 Y99.859 E3.19801
G1 X32.269 Y99.859 E3.19851
G1 X32.269 Y0.141 E3.26909
G1 X32.978 Y0.141 E3.26959
G1 X32.978 Y99.859 E3.34017
G1 X33.688 Y99.859 E3.34067
G1 X33.688 Y0.141 E3.41124
G1 X34.397 Y0.141 E3.41175
G1 X34.397 Y99.859 E3.48232
G1 X35.106 Y99.859 E3.48282
G1 X35.106 Y0.141 E3.55340
G1 X35.815 Y0.141 E3.55390
G1 X35.815 Y99.859 E3.62448
G1 X36.524 Y99.859 E3.62498
G1 X36.524 Y0.141 E3.69556
G1 X37.234 Y0.141 E3.69606
G1 X37.234 Y99.859 E3.76663
G1 X37.943 Y99.859 E3.76714
G1 X37.943 Y0.141 E3.83771
G1 X38.652 Y0.141 E3.83821
G1 X38.652 Y99.859 E3.90879
G1 X39.361 Y99.859 E3.90929
G1 X39.361 Y0.141 E3.97987
G1 X40.071 Y0.141 E3.98037
G1 X40.071 Y99.859 E4.05095
G1 X40.780 Y99.859 E4.05145
G1 X40.780 Y0.141 E4.12202
G1 X41.489 Y0.141 E4.12253
G1 X41.489 Y99.859 E4.19310
G1 X42.198 Y99.859 E4.19360
G1 X42.198 Y0.141 E4.26418
G1 X42.908 Y0.141 E4.26468
G1 X42.908 Y99.859 E4.33526
G1 X43.617 Y99.859 E4.33576
G1 X43.617 Y0.141 E4.40634
G1 X44.326 Y0.141 E4.40684
G1 X44.326 Y99.859 E4.47741
G1 X45.035 Y99.859 E4.47792
G1 X45.035 Y0.141 E4.54849
G1 X45.745 Y0.141 E4.54899
G1 X45.745 Y99.859 E4.61957
G1 X46.454 Y99.859 E4.62007
G1 X46.454 Y0.141 E4.69065
G1 X47.163 Y0.141 E4.69115
G1 X47.163 Y99.859 E4.76173
G1 X47.872 Y99.859 E4.76223
G1 X47.872 Y0.141 E4.83281
G1 X48.581 Y0.141 E4.83331
G1 X48.581 Y99.859 E4.90388
G1 X49.291 Y99.859 E4.90439
G1 X49.291 Y0.141 E4.97496
G1 X50.000 Y0.141 E4.97546
G1 X50.000 Y99.859 E5.04604
G1 X50.709 Y99.859 E5.04654
G1 X50.709 Y0.141 E5.11712
G1 X51.418 Y0.141 E5.11762
G1 X51.418 Y99.859 E5.18820
G1 X52.128 Y99.859 E5.18870
G1 X52.128 Y0.141 E5.25927
G1 X52.837 Y0.141 E5.25978
G1 X52.837 Y99.859 E5.33035
G1 X53.546 Y99.859 E5.33085
G1 X53.546 Y0.141 E5.40143
G1 X54.255 Y0.141 E5.40193
G1 X54.255 Y99.859 E5.47251
G1 X54.965 Y99.859 E5.47301
G1 X54.965 Y0.141 E5.54359
G1 X55.674 Y0.141 E5.54409
G1 X55.674 Y99.859 E5.61466
G1 X56.383 Y99.859 E5.61517
G1 X56.383 Y0.141 E5.68574
G1 X57.092 Y0.141 E5.68624
G1 X57.092 Y99.859 E5.75682
G1 X57.802 Y99.859 E5.75732
G1 X57.802 Y0.141 E5.82790
G1 X58.511 Y0.141 E5.82840
G1 X58.511 Y99.859 E5.89898
G1 X59.220 Y99.859 E5.89948
G1 X59.220 Y0.141 E5.97005
G1 X59.929 Y0.141 E5.97056
G1 X59.929 Y99.859 E6.04113
G1 X60.639 Y99.859 E6.04163
G1 X60.639 Y0.141 E6.11221
G1 X61.348 Y0.141 E6.11271
G1 X61.348 Y99.859 E6.18329
G1 X62.057 Y99.859 E6.18379
G1 X62.057 Y0.141 E6.25437
G1 X62.766 Y0.141 E6.25487
G1 X62.766 Y99.859 E6.32544
G1 X63.475 Y99.859 E6.32595
G1 X63.475 Y0.141 E6.39652
G1 X64.185 Y0.141 E6.39702
G1 X64.185 Y99.859 E6.46760
G1 X64.894 Y99.859 E6.46810
G1 X64.894 Y0.141 E6.53868
G1 X65.603 Y0.141 E6.53918
G1 X65.603 Y99.859 E6.60976
G1 X66.312 Y99.859 E6.61026
G1 X66.312 Y0.141 E6.68083
G1 X67.022 Y0.141 E6.68134
G1 X67.022 Y99.859 E6.75191
G1 X67.731 Y99.859 E6.75241
G1 X67.731 Y0.141 E6.82299
G1 X68.440 Y0.141 E6.82349
G1 X68.440 Y99.859 E6.89407
G1 X69.149 Y99.859 E6.89457
G1 X69.149 Y0.141 E6.96515
G1 X69.859 Y0.141 E6.96565
G1 X69.859 Y99.859 E7.03622
G1 X70.568 Y99.859 E7.03673
G1 X70.568 Y0.141 E7.10730
G1 X71.277 Y0.141 E7.10780
G1 X71.277 Y99.859 E7.17838
G1 X71.986 Y99.859 E7.17888
G1 X71.986 Y0.141 E7.24946
G1 X72.696 Y0.141 E7.24996
G1 X72.696 Y99.859 E7.32054
G1 X73.405 Y99.859 E7.32104
G1 X73.405 Y0.141 E7.39161
G1 X74.114 Y0.141 E7.39212
G1 X74.114 Y99.859 E7.46269
G1 X74.823 Y99.859 E7.46319
G1 X74.823 Y0.141 E7.53377
G1 X75.533 Y0.141 E7.53427
G1 X75.533 Y99.859 E7.60485
G1 X76.242 Y99.859 E7.60535
G1 X76.242 Y0.141 E7.67593
G1 X76.951 Y0.141 E7.67643
G1 X76.951 Y99.859 E7.74700
G1 X77.660 Y99.859 E7.74751
G1 X77.660 Y0.141 E7.81808
G1 X78.369 Y0.141 E7.81858
G1 X78.369 Y99.859 E7.88916
G1 X79.079 Y99.859 E7.88966
G1 X79.079 Y0.141 E7.96024
G1 X79.788 Y0.141 E7.96074
G1 X79.788 Y99.859 E8.03132
G1 X80.497 Y99.859 E8.03182
G1 X80.497 Y0.141 E8.10240
G1 X81.206 Y0.141 E8.10290
G1 X81.206 Y99.859 E8.17347
G1 X81.916 Y99.859 E8.17398
G1 X81.916 Y0.141 E8.24455
G1 X82.625 Y0.141 E8.24505
G1 X82.625 Y99.859 E8.31563
G1 X83.334 Y99.859 E8.31613
G1 X83.334 Y0.141 E8.38671
G1 X84.043 Y0.141 E8.38721
G1 X84.043 Y99.859 E8.45779
G1 X84.753 Y99.859 E8.45829
G1 X84.753 Y0.141 E8.52886
G1 X85.462 Y0.141 E8.52937
G1 X85.462 Y99.859 E8.59994
G1 X86.171 Y99.859 E8.60044
G1 X86.171 Y0.141 E8.67102
G1 X86.880 Y0.141 E8.67152
G1 X86.880 Y99.859 E8.74210
G1 X87.590 Y99.859 E8.74260
G1 X87.590 Y0.141 E8.81318
G1 X88.299 Y0.141 E8.81368
G1 X88.299 Y99.859 E8.88425
G1 X89.008 Y99.859 E8.88476
G1 X89.008 Y0.141 E8.95533
G1 X89.717 Y0.141 E8.95583
G1 X89.717 Y99.859 E9.02641
G1 X90.426 Y99.859 E9.02691
G1 X90.426 Y0.141 E9.09749
G1 X91.136 Y0.141 E9.09799
G1 X91.136 Y99.859 E9.16857
G1 X91.845 Y99.859 E9.16907
G1 X91.845 Y0.141 E9.23964
G1 X92.554 Y0.141 E9.24015
G1 X92.554 Y99.859 E9.31072
G1 X93.263 Y99.859 E9.31122
G1 X93.263 Y0.141 E9.38180
G1 X93.973 Y0.141 E9.38230
G1 X93.973 Y99.859 E9.45288
G1 X94.682 Y99.859 E9.45338
G1 X94.682 Y0.141 E9.52396
G1 X95.391 Y0.141 E9.52446
G1 X95.391 Y99.859 E9.59503
G1 X96.100 Y99.859 E9.59554
G1 X96.100 Y0.141 E9.66611
G1 X96.810 Y0.141 E9.66661
G1 X96.810 Y99.859 E9.73719
G1 X97.519 Y99.859 E9.73769
G1 X97.519 Y0.141 E9.80827
G1 X98.228 Y0.141 E9.80877
G1 X98.228 Y99.859 E9.87935
G1 X98.937 Y99.859 E9.87985
G1 X98.937 Y0.141 E9.95042
G1 X99.647 Y0.141 E9.95093
G1 X99.647 Y99.859 E10.02150
G92 E0
G1 Z5;
G1 E-50;
M84     ; disable motors

; filament used = 10.0mm (2.0cm3)

; avoid_crossing_perimeters = 0
; bed_shape = 0x0,100x0,100x100,0x100
; bed_temperature = 0
; before_layer_gcode = 
; bridge_acceleration = 0
; bridge_fan_speed = 100
; brim_width = 0
; complete_objects = 0
; cooling = 1
; default_acceleration = 0
; disable_fan_first_layers = 3
; duplicate_distance = 6
; end_gcode = G1 Z5;\nG1 E-50;\nM84     ; disable motors\n
; extruder_clearance_height = 20
; extruder_clearance_radius = 20
; extruder_offset = 0x0
; extrusion_axis = E
; extrusion_multiplier = 1
; fan_always_on = 0
; fan_below_layer_time = 60
; filament_colour = #FFFFFF
; filament_diameter = 15.95
; first_layer_acceleration = 0
; first_layer_bed_temperature = 0
; first_layer_extrusion_width = 375%
; first_layer_speed = 100%
; first_layer_temperature = 0
; gcode_arcs = 0
; gcode_comments = 0
; gcode_flavor = reprap
; infill_acceleration = 0
; infill_first = 0
; layer_gcode = 
; max_fan_speed = 100
; max_print_speed = 80
; max_volumetric_speed = 0
; min_fan_speed = 35
; min_print_speed = 10
; min_skirt_length = 0
; notes = 
; nozzle_diameter = 0.3
; only_retract_when_crossing_perimeters = 1
; ooze_prevention = 0
; output_filename_format = [input_filename_base].gcode
; perimeter_acceleration = 0
; post_process = 
; pressure_advance = 0
; resolution = 0
; retract_before_travel = 2
; retract_layer_change = 0
; retract_length = 0
; retract_length_toolchange = 10
; retract_lift = 0
; retract_lift_above = 0
; retract_lift_below = 0
; retract_restart_extra = 0
; retract_restart_extra_toolchange = 0
; retract_speed = 40
; skirt_distance = 6
; skirt_height = 1
; skirts = 0
; slowdown_below_layer_time = 5
; spiral_vase = 0
; standby_temperature_delta = -5
; start_gcode = G28\nG29\n
; temperature = 0
; threads = 2
; toolchange_gcode = 
; travel_speed = 60
; use_firmware_retraction = 0
; use_relative_e_distances = 0
; use_volumetric_e = 0
; vibration_limit = 0
; wipe = 0
; z_offset = -0.2
; dont_support_bridges = 1
; extrusion_width = 0
; first_layer_height = 0.2
; infill_only_where_needed = 0
; interface_shells = 0
; layer_height = 0.1
; raft_layers = 0
; seam_position = aligned
; support_material = 0
; support_material_angle = 0
; support_material_contact_distance = 0.2
; support_material_enforce_layers = 0
; support_material_extruder = 1
; support_material_extrusion_width = 0
; support_material_interface_extruder = 1
; support_material_interface_layers = 3
; support_material_interface_spacing = 0
; support_material_interface_speed = 100%
; support_material_pattern = pillars
; support_material_spacing = 2.5
; support_material_speed = 60
; support_material_threshold = 0
; xy_size_compensation = 0
; bottom_solid_layers = 0
; bridge_flow_ratio = 1
; bridge_speed = 60
; external_fill_pattern = rectilinear
; external_perimeter_extrusion_width = 0
; external_perimeter_speed = 40
; external_perimeters_first = 0
; extra_perimeters = 1
; fill_angle = 90
; fill_density = 100%
; fill_pattern = rectilinear
; gap_fill_speed = 60
; infill_every_layers = 1
; infill_extruder = 1
; infill_extrusion_width = 0
; infill_overlap = 0%
; infill_speed = 60
; overhangs = 1
; perimeter_extruder = 1
; perimeter_extrusion_width = 0
; perimeter_speed = 40
; perimeters = 0
; small_perimeter_speed = 40
; solid_infill_below_area = 70
; solid_infill_every_layers = 0
; solid_infill_extruder = 1
; solid_infill_extrusion_width = 0
; solid_infill_speed = 60
; thin_walls = 1
; top_infill_extrusion_width = 0
; top_solid_infill_speed = 60
; top_solid_layers = 0
