; generated by Slic3r 1.3.0-dev on 2016-11-25 at 09:43:31

; external perimeters extrusion width = 0.30mm
; perimeters extrusion width = 0.51mm
; infill extrusion width = 0.73mm
; solid infill extrusion width = 0.51mm
; top infill extrusion width = 0.51mm

M107
G28
G29

G21 ; set units to millimeters
G90 ; use absolute coordinates
M82 ; use absolute distances for extrusion
G92 E0
G1 Z-0.100 F3600.000
G1 X0.353 Y0.141 F3600.000
G1 F3600
G1 X0.353 Y99.859 E0.03536
G1 X1.063 Y99.859 E0.03561
G1 X1.063 Y0.141 E0.07097
G1 X1.772 Y0.141 E0.07122
G1 X1.772 Y99.859 E0.10659
G1 X2.481 Y99.859 E0.10684
G1 X2.481 Y0.141 E0.14220
G1 X3.190 Y0.141 E0.14245
G1 X3.190 Y99.859 E0.17781
G1 X3.900 Y99.859 E0.17806
G1 X3.900 Y0.141 E0.21342
G1 X4.609 Y0.141 E0.21367
G1 X4.609 Y99.859 E0.24904
G1 X5.318 Y99.859 E0.24929
G1 X5.318 Y0.141 E0.28465
G1 X6.027 Y0.141 E0.28490
G1 X6.027 Y99.859 E0.32026
G1 X6.736 Y99.859 E0.32051
G1 X6.736 Y0.141 E0.35587
G1 X7.446 Y0.141 E0.35612
G1 X7.446 Y99.859 E0.39149
G1 X8.155 Y99.859 E0.39174
G1 X8.155 Y0.141 E0.42710
G1 X8.864 Y0.141 E0.42735
G1 X8.864 Y99.859 E0.46271
G1 X9.573 Y99.859 E0.46296
G1 X9.573 Y0.141 E0.49832
G1 X10.283 Y0.141 E0.49857
G1 X10.283 Y99.859 E0.53393
G1 X10.992 Y99.859 E0.53419
G1 X10.992 Y0.141 E0.56955
G1 X11.701 Y0.141 E0.56980
G1 X11.701 Y99.859 E0.60516
G1 X12.410 Y99.859 E0.60541
G1 X12.410 Y0.141 E0.64077
G1 X13.120 Y0.141 E0.64102
G1 X13.120 Y99.859 E0.67638
G1 X13.829 Y99.859 E0.67664
G1 X13.829 Y0.141 E0.71200
G1 X14.538 Y0.141 E0.71225
G1 X14.538 Y99.859 E0.74761
G1 X15.247 Y99.859 E0.74786
G1 X15.247 Y0.141 E0.78322
G1 X15.957 Y0.141 E0.78347
G1 X15.957 Y99.859 E0.81883
G1 X16.666 Y99.859 E0.81909
G1 X16.666 Y0.141 E0.85445
G1 X17.375 Y0.141 E0.85470
G1 X17.375 Y99.859 E0.89006
G1 X18.084 Y99.859 E0.89031
G1 X18.084 Y0.141 E0.92567
G1 X18.794 Y0.141 E0.92592
G1 X18.794 Y99.859 E0.96128
G1 X19.503 Y99.859 E0.96154
G1 X19.503 Y0.141 E0.99690
G1 X20.212 Y0.141 E0.99715
G1 X20.212 Y99.859 E1.03251
G1 X20.921 Y99.859 E1.03276
G1 X20.921 Y0.141 E1.06812
G1 X21.630 Y0.141 E1.06837
G1 X21.630 Y99.859 E1.10373
G1 X22.340 Y99.859 E1.10398
G1 X22.340 Y0.141 E1.13935
G1 X23.049 Y0.141 E1.13960
G1 X23.049 Y99.859 E1.17496
G1 X23.758 Y99.859 E1.17521
G1 X23.758 Y0.141 E1.21057
G1 X24.467 Y0.141 E1.21082
G1 X24.467 Y99.859 E1.24618
G1 X25.177 Y99.859 E1.24643
G1 X25.177 Y0.141 E1.28180
G1 X25.886 Y0.141 E1.28205
G1 X25.886 Y99.859 E1.31741
G1 X26.595 Y99.859 E1.31766
G1 X26.595 Y0.141 E1.35302
G1 X27.304 Y0.141 E1.35327
G1 X27.304 Y99.859 E1.38863
G1 X28.014 Y99.859 E1.38888
G1 X28.014 Y0.141 E1.42425
G1 X28.723 Y0.141 E1.42450
G1 X28.723 Y99.859 E1.45986
G1 X29.432 Y99.859 E1.46011
G1 X29.432 Y0.141 E1.49547
G1 X30.141 Y0.141 E1.49572
G1 X30.141 Y99.859 E1.53108
G1 X30.851 Y99.859 E1.53133
G1 X30.851 Y0.141 E1.56669
G1 X31.560 Y0.141 E1.56695
G1 X31.560 Y99.859 E1.60231
G1 X32.269 Y99.859 E1.60256
G1 X32.269 Y0.141 E1.63792
G1 X32.978 Y0.141 E1.63817
G1 X32.978 Y99.859 E1.67353
G1 X33.688 Y99.859 E1.67378
G1 X33.688 Y0.141 E1.70914
G1 X34.397 Y0.141 E1.70940
G1 X34.397 Y99.859 E1.74476
G1 X35.106 Y99.859 E1.74501
G1 X35.106 Y0.141 E1.78037
G1 X35.815 Y0.141 E1.78062
G1 X35.815 Y99.859 E1.81598
G1 X36.524 Y99.859 E1.81623
G1 X36.524 Y0.141 E1.85159
G1 X37.234 Y0.141 E1.85185
G1 X37.234 Y99.859 E1.88721
G1 X37.943 Y99.859 E1.88746
G1 X37.943 Y0.141 E1.92282
G1 X38.652 Y0.141 E1.92307
G1 X38.652 Y99.859 E1.95843
G1 X39.361 Y99.859 E1.95868
G1 X39.361 Y0.141 E1.99404
G1 X40.071 Y0.141 E1.99430
G1 X40.071 Y99.859 E2.02966
G1 X40.780 Y99.859 E2.02991
G1 X40.780 Y0.141 E2.06527
G1 X41.489 Y0.141 E2.06552
G1 X41.489 Y99.859 E2.10088
G1 X42.198 Y99.859 E2.10113
G1 X42.198 Y0.141 E2.13649
G1 X42.908 Y0.141 E2.13674
G1 X42.908 Y99.859 E2.17211
G1 X43.617 Y99.859 E2.17236
G1 X43.617 Y0.141 E2.20772
G1 X44.326 Y0.141 E2.20797
G1 X44.326 Y99.859 E2.24333
G1 X45.035 Y99.859 E2.24358
G1 X45.035 Y0.141 E2.27894
G1 X45.745 Y0.141 E2.27919
G1 X45.745 Y99.859 E2.31456
G1 X46.454 Y99.859 E2.31481
G1 X46.454 Y0.141 E2.35017
G1 X47.163 Y0.141 E2.35042
G1 X47.163 Y99.859 E2.38578
G1 X47.872 Y99.859 E2.38603
G1 X47.872 Y0.141 E2.42139
G1 X48.581 Y0.141 E2.42164
G1 X48.581 Y99.859 E2.45701
G1 X49.291 Y99.859 E2.45726
G1 X49.291 Y0.141 E2.49262
G1 X50.000 Y0.141 E2.49287
G1 X50.000 Y99.859 E2.52823
G1 X50.709 Y99.859 E2.52848
G1 X50.709 Y0.141 E2.56384
G1 X51.418 Y0.141 E2.56409
G1 X51.418 Y99.859 E2.59945
G1 X52.128 Y99.859 E2.59971
G1 X52.128 Y0.141 E2.63507
G1 X52.837 Y0.141 E2.63532
G1 X52.837 Y99.859 E2.67068
G1 X53.546 Y99.859 E2.67093
G1 X53.546 Y0.141 E2.70629
G1 X54.255 Y0.141 E2.70654
G1 X54.255 Y99.859 E2.74190
G1 X54.965 Y99.859 E2.74216
G1 X54.965 Y0.141 E2.77752
G1 X55.674 Y0.141 E2.77777
G1 X55.674 Y99.859 E2.81313
G1 X56.383 Y99.859 E2.81338
G1 X56.383 Y0.141 E2.84874
G1 X57.092 Y0.141 E2.84899
G1 X57.092 Y99.859 E2.88435
G1 X57.802 Y99.859 E2.88461
G1 X57.802 Y0.141 E2.91997
G1 X58.511 Y0.141 E2.92022
G1 X58.511 Y99.859 E2.95558
G1 X59.220 Y99.859 E2.95583
G1 X59.220 Y0.141 E2.99119
G1 X59.929 Y0.141 E2.99144
G1 X59.929 Y99.859 E3.02680
G1 X60.639 Y99.859 E3.02706
G1 X60.639 Y0.141 E3.06242
G1 X61.348 Y0.141 E3.06267
G1 X61.348 Y99.859 E3.09803
G1 X62.057 Y99.859 E3.09828
G1 X62.057 Y0.141 E3.13364
G1 X62.766 Y0.141 E3.13389
G1 X62.766 Y99.859 E3.16925
G1 X63.475 Y99.859 E3.16950
G1 X63.475 Y0.141 E3.20487
G1 X64.185 Y0.141 E3.20512
G1 X64.185 Y99.859 E3.24048
G1 X64.894 Y99.859 E3.24073
G1 X64.894 Y0.141 E3.27609
G1 X65.603 Y0.141 E3.27634
G1 X65.603 Y99.859 E3.31170
G1 X66.312 Y99.859 E3.31195
G1 X66.312 Y0.141 E3.34732
G1 X67.022 Y0.141 E3.34757
G1 X67.022 Y99.859 E3.38293
G1 X67.731 Y99.859 E3.38318
G1 X67.731 Y0.141 E3.41854
G1 X68.440 Y0.141 E3.41879
G1 X68.440 Y99.859 E3.45415
G1 X69.149 Y99.859 E3.45440
G1 X69.149 Y0.141 E3.48977
G1 X69.859 Y0.141 E3.49002
G1 X69.859 Y99.859 E3.52538
G1 X70.568 Y99.859 E3.52563
G1 X70.568 Y0.141 E3.56099
G1 X71.277 Y0.141 E3.56124
G1 X71.277 Y99.859 E3.59660
G1 X71.986 Y99.859 E3.59685
G1 X71.986 Y0.141 E3.63221
G1 X72.696 Y0.141 E3.63247
G1 X72.696 Y99.859 E3.66783
G1 X73.405 Y99.859 E3.66808
G1 X73.405 Y0.141 E3.70344
G1 X74.114 Y0.141 E3.70369
G1 X74.114 Y99.859 E3.73905
G1 X74.823 Y99.859 E3.73930
G1 X74.823 Y0.141 E3.77466
G1 X75.533 Y0.141 E3.77492
G1 X75.533 Y99.859 E3.81028
G1 X76.242 Y99.859 E3.81053
G1 X76.242 Y0.141 E3.84589
G1 X76.951 Y0.141 E3.84614
G1 X76.951 Y99.859 E3.88150
G1 X77.660 Y99.859 E3.88175
G1 X77.660 Y0.141 E3.91711
G1 X78.369 Y0.141 E3.91737
G1 X78.369 Y99.859 E3.95273
G1 X79.079 Y99.859 E3.95298
G1 X79.079 Y0.141 E3.98834
G1 X79.788 Y0.141 E3.98859
G1 X79.788 Y99.859 E4.02395
G1 X80.497 Y99.859 E4.02420
G1 X80.497 Y0.141 E4.05956
G1 X81.206 Y0.141 E4.05982
G1 X81.206 Y99.859 E4.09518
G1 X81.916 Y99.859 E4.09543
G1 X81.916 Y0.141 E4.13079
G1 X82.625 Y0.141 E4.13104
G1 X82.625 Y99.859 E4.16640
G1 X83.334 Y99.859 E4.16665
G1 X83.334 Y0.141 E4.20201
G1 X84.043 Y0.141 E4.20226
G1 X84.043 Y99.859 E4.23763
G1 X84.753 Y99.859 E4.23788
G1 X84.753 Y0.141 E4.27324
G1 X85.462 Y0.141 E4.27349
G1 X85.462 Y99.859 E4.30885
G1 X86.171 Y99.859 E4.30910
G1 X86.171 Y0.141 E4.34446
G1 X86.880 Y0.141 E4.34471
G1 X86.880 Y99.859 E4.38008
G1 X87.590 Y99.859 E4.38033
G1 X87.590 Y0.141 E4.41569
G1 X88.299 Y0.141 E4.41594
G1 X88.299 Y99.859 E4.45130
G1 X89.008 Y99.859 E4.45155
G1 X89.008 Y0.141 E4.48691
G1 X89.717 Y0.141 E4.48716
G1 X89.717 Y99.859 E4.52253
G1 X90.426 Y99.859 E4.52278
G1 X90.426 Y0.141 E4.55814
G1 X91.136 Y0.141 E4.55839
G1 X91.136 Y99.859 E4.59375
G1 X91.845 Y99.859 E4.59400
G1 X91.845 Y0.141 E4.62936
G1 X92.554 Y0.141 E4.62961
G1 X92.554 Y99.859 E4.66497
G1 X93.263 Y99.859 E4.66523
G1 X93.263 Y0.141 E4.70059
G1 X93.973 Y0.141 E4.70084
G1 X93.973 Y99.859 E4.73620
G1 X94.682 Y99.859 E4.73645
G1 X94.682 Y0.141 E4.77181
G1 X95.391 Y0.141 E4.77206
G1 X95.391 Y99.859 E4.80742
G1 X96.100 Y99.859 E4.80768
G1 X96.100 Y0.141 E4.84304
G1 X96.810 Y0.141 E4.84329
G1 X96.810 Y99.859 E4.87865
G1 X97.519 Y99.859 E4.87890
G1 X97.519 Y0.141 E4.91426
G1 X98.228 Y0.141 E4.91451
G1 X98.228 Y99.859 E4.94987
G1 X98.937 Y99.859 E4.95013
G1 X98.937 Y0.141 E4.98549
G1 X99.647 Y0.141 E4.98574
G1 X99.647 Y99.859 E5.02110
G92 E0
G1 Z5;
G1 E-50;
M84     ; disable motors

; filament used = 5.0mm (1.0cm3)

; avoid_crossing_perimeters = 0
; bed_shape = 0x0,100x0,100x100,0x100
; bed_temperature = 0
; before_layer_gcode = 
; bridge_acceleration = 0
; bridge_fan_speed = 100
; brim_width = 0
; complete_objects = 0
; cooling = 1
; default_acceleration = 0
; disable_fan_first_layers = 3
; duplicate_distance = 6
; end_gcode = G1 Z5;\nG1 E-50;\nM84     ; disable motors\n
; extruder_clearance_height = 20
; extruder_clearance_radius = 20
; extruder_offset = 0x0
; extrusion_axis = E
; extrusion_multiplier = 1
; fan_always_on = 0
; fan_below_layer_time = 60
; filament_colour = #FFFFFF
; filament_diameter = 15.95
; first_layer_acceleration = 0
; first_layer_bed_temperature = 0
; first_layer_extrusion_width = 730%
; first_layer_speed = 100%
; first_layer_temperature = 0
; gcode_arcs = 0
; gcode_comments = 0
; gcode_flavor = reprap
; infill_acceleration = 0
; infill_first = 0
; layer_gcode = 
; max_fan_speed = 100
; max_print_speed = 80
; max_volumetric_speed = 0
; min_fan_speed = 35
; min_print_speed = 10
; min_skirt_length = 0
; notes = 
; nozzle_diameter = 0.3
; only_retract_when_crossing_perimeters = 1
; ooze_prevention = 0
; output_filename_format = [input_filename_base].gcode
; perimeter_acceleration = 0
; post_process = 
; pressure_advance = 0
; resolution = 0
; retract_before_travel = 2
; retract_layer_change = 0
; retract_length = 0
; retract_length_toolchange = 10
; retract_lift = 0
; retract_lift_above = 0
; retract_lift_below = 0
; retract_restart_extra = 0
; retract_restart_extra_toolchange = 0
; retract_speed = 40
; skirt_distance = 6
; skirt_height = 1
; skirts = 0
; slowdown_below_layer_time = 5
; spiral_vase = 0
; standby_temperature_delta = -5
; start_gcode = G28\nG29\n
; temperature = 0
; threads = 2
; toolchange_gcode = 
; travel_speed = 60
; use_firmware_retraction = 0
; use_relative_e_distances = 0
; use_volumetric_e = 0
; vibration_limit = 0
; wipe = 0
; z_offset = -0.2
; dont_support_bridges = 1
; extrusion_width = 0
; first_layer_height = 0.1
; infill_only_where_needed = 0
; interface_shells = 0
; layer_height = 0.1
; raft_layers = 0
; seam_position = aligned
; support_material = 0
; support_material_angle = 0
; support_material_contact_distance = 0.2
; support_material_enforce_layers = 0
; support_material_extruder = 1
; support_material_extrusion_width = 0
; support_material_interface_extruder = 1
; support_material_interface_layers = 3
; support_material_interface_spacing = 0
; support_material_interface_speed = 100%
; support_material_pattern = pillars
; support_material_spacing = 2.5
; support_material_speed = 60
; support_material_threshold = 0
; xy_size_compensation = 0
; bottom_solid_layers = 0
; bridge_flow_ratio = 1
; bridge_speed = 60
; external_fill_pattern = rectilinear
; external_perimeter_extrusion_width = 0
; external_perimeter_speed = 40
; external_perimeters_first = 0
; extra_perimeters = 1
; fill_angle = 90
; fill_density = 100%
; fill_pattern = rectilinear
; gap_fill_speed = 60
; infill_every_layers = 1
; infill_extruder = 1
; infill_extrusion_width = 0
; infill_overlap = 0%
; infill_speed = 60
; overhangs = 1
; perimeter_extruder = 1
; perimeter_extrusion_width = 0
; perimeter_speed = 40
; perimeters = 0
; small_perimeter_speed = 40
; solid_infill_below_area = 70
; solid_infill_every_layers = 0
; solid_infill_extruder = 1
; solid_infill_extrusion_width = 0
; solid_infill_speed = 60
; thin_walls = 1
; top_infill_extrusion_width = 0
; top_solid_infill_speed = 60
; top_solid_layers = 0
