; generated by Slic3r 1.3.0-dev on 2016-11-28 at 01:42:03

; external perimeters extrusion width = 0.30mm
; perimeters extrusion width = 0.51mm
; infill extrusion width = 0.73mm
; solid infill extrusion width = 0.51mm
; top infill extrusion width = 0.51mm

M107
M190 S105 ; set bed temperature and wait for it to be reached
G28
G29

G21 ; set units to millimeters
G90 ; use absolute coordinates
M82 ; use absolute distances for extrusion
G92 E0
G1 Z-0.100 F3600.000
G1 X0.353 Y0.141 F3600.000
G1 F3600
G1 X0.353 Y99.859 E0.14144
G1 X1.063 Y99.859 E0.14245
G1 X1.063 Y0.141 E0.28389
G1 X1.772 Y0.141 E0.28490
G1 X1.772 Y99.859 E0.42634
G1 X2.481 Y99.859 E0.42735
G1 X2.481 Y0.141 E0.56879
G1 X3.190 Y0.141 E0.56980
G1 X3.190 Y99.859 E0.71124
G1 X3.900 Y99.859 E0.71225
G1 X3.900 Y0.141 E0.85369
G1 X4.609 Y0.141 E0.85470
G1 X4.609 Y99.859 E0.99614
G1 X5.318 Y99.859 E0.99715
G1 X5.318 Y0.141 E1.13859
G1 X6.027 Y0.141 E1.13960
G1 X6.027 Y99.859 E1.28104
G1 X6.736 Y99.859 E1.28205
G1 X6.736 Y0.141 E1.42349
G1 X7.446 Y0.141 E1.42450
G1 X7.446 Y99.859 E1.56594
G1 X8.155 Y99.859 E1.56695
G1 X8.155 Y0.141 E1.70839
G1 X8.864 Y0.141 E1.70940
G1 X8.864 Y99.859 E1.85084
G1 X9.573 Y99.859 E1.85185
G1 X9.573 Y0.141 E1.99329
G1 X10.283 Y0.141 E1.99430
G1 X10.283 Y99.859 E2.13574
G1 X10.992 Y99.859 E2.13674
G1 X10.992 Y0.141 E2.27819
G1 X11.701 Y0.141 E2.27919
G1 X11.701 Y99.859 E2.42064
G1 X12.410 Y99.859 E2.42164
G1 X12.410 Y0.141 E2.56309
G1 X13.120 Y0.141 E2.56409
G1 X13.120 Y99.859 E2.70554
G1 X13.829 Y99.859 E2.70654
G1 X13.829 Y0.141 E2.84799
G1 X14.538 Y0.141 E2.84899
G1 X14.538 Y99.859 E2.99044
G1 X15.247 Y99.859 E2.99144
G1 X15.247 Y0.141 E3.13289
G1 X15.957 Y0.141 E3.13389
G1 X15.957 Y99.859 E3.27534
G1 X16.666 Y99.859 E3.27634
G1 X16.666 Y0.141 E3.41779
G1 X17.375 Y0.141 E3.41879
G1 X17.375 Y99.859 E3.56024
G1 X18.084 Y99.859 E3.56124
G1 X18.084 Y0.141 E3.70269
G1 X18.794 Y0.141 E3.70369
G1 X18.794 Y99.859 E3.84513
G1 X19.503 Y99.859 E3.84614
G1 X19.503 Y0.141 E3.98758
G1 X20.212 Y0.141 E3.98859
G1 X20.212 Y99.859 E4.13003
G1 X20.921 Y99.859 E4.13104
G1 X20.921 Y0.141 E4.27248
G1 X21.630 Y0.141 E4.27349
G1 X21.630 Y99.859 E4.41493
G1 X22.340 Y99.859 E4.41594
G1 X22.340 Y0.141 E4.55738
G1 X23.049 Y0.141 E4.55839
G1 X23.049 Y99.859 E4.69983
G1 X23.758 Y99.859 E4.70084
G1 X23.758 Y0.141 E4.84228
G1 X24.467 Y0.141 E4.84329
G1 X24.467 Y99.859 E4.98473
G1 X25.177 Y99.859 E4.98574
G1 X25.177 Y0.141 E5.12718
G1 X25.886 Y0.141 E5.12819
G1 X25.886 Y99.859 E5.26963
G1 X26.595 Y99.859 E5.27064
G1 X26.595 Y0.141 E5.41208
G1 X27.304 Y0.141 E5.41309
G1 X27.304 Y99.859 E5.55453
G1 X28.014 Y99.859 E5.55554
G1 X28.014 Y0.141 E5.69698
G1 X28.723 Y0.141 E5.69799
G1 X28.723 Y99.859 E5.83943
G1 X29.432 Y99.859 E5.84044
G1 X29.432 Y0.141 E5.98188
G1 X30.141 Y0.141 E5.98289
G1 X30.141 Y99.859 E6.12433
G1 X30.851 Y99.859 E6.12534
G1 X30.851 Y0.141 E6.26678
G1 X31.560 Y0.141 E6.26779
G1 X31.560 Y99.859 E6.40923
G1 X32.269 Y99.859 E6.41023
G1 X32.269 Y0.141 E6.55168
G1 X32.978 Y0.141 E6.55268
G1 X32.978 Y99.859 E6.69413
G1 X33.688 Y99.859 E6.69513
G1 X33.688 Y0.141 E6.83658
G1 X34.397 Y0.141 E6.83758
G1 X34.397 Y99.859 E6.97903
G1 X35.106 Y99.859 E6.98003
G1 X35.106 Y0.141 E7.12148
G1 X35.815 Y0.141 E7.12248
G1 X35.815 Y99.859 E7.26393
G1 X36.524 Y99.859 E7.26493
G1 X36.524 Y0.141 E7.40638
G1 X37.234 Y0.141 E7.40738
G1 X37.234 Y99.859 E7.54883
G1 X37.943 Y99.859 E7.54983
G1 X37.943 Y0.141 E7.69128
G1 X38.652 Y0.141 E7.69228
G1 X38.652 Y99.859 E7.83373
G1 X39.361 Y99.859 E7.83473
G1 X39.361 Y0.141 E7.97617
G1 X40.071 Y0.141 E7.97718
G1 X40.071 Y99.859 E8.11862
G1 X40.780 Y99.859 E8.11963
G1 X40.780 Y0.141 E8.26107
G1 X41.489 Y0.141 E8.26208
G1 X41.489 Y99.859 E8.40352
G1 X42.198 Y99.859 E8.40453
G1 X42.198 Y0.141 E8.54597
G1 X42.908 Y0.141 E8.54698
G1 X42.908 Y99.859 E8.68842
G1 X43.617 Y99.859 E8.68943
G1 X43.617 Y0.141 E8.83087
G1 X44.326 Y0.141 E8.83188
G1 X44.326 Y99.859 E8.97332
G1 X45.035 Y99.859 E8.97433
G1 X45.035 Y0.141 E9.11577
G1 X45.745 Y0.141 E9.11678
G1 X45.745 Y99.859 E9.25822
G1 X46.454 Y99.859 E9.25923
G1 X46.454 Y0.141 E9.40067
G1 X47.163 Y0.141 E9.40168
G1 X47.163 Y99.859 E9.54312
G1 X47.872 Y99.859 E9.54413
G1 X47.872 Y0.141 E9.68557
G1 X48.581 Y0.141 E9.68658
G1 X48.581 Y99.859 E9.82802
G1 X49.291 Y99.859 E9.82903
G1 X49.291 Y0.141 E9.97047
G1 X50.000 Y0.141 E9.97148
G1 X50.000 Y99.859 E10.11292
G1 X50.709 Y99.859 E10.11393
G1 X50.709 Y0.141 E10.25537
G1 X51.418 Y0.141 E10.25638
G1 X51.418 Y99.859 E10.39782
G1 X52.128 Y99.859 E10.39883
G1 X52.128 Y0.141 E10.54027
G1 X52.837 Y0.141 E10.54127
G1 X52.837 Y99.859 E10.68272
G1 X53.546 Y99.859 E10.68372
G1 X53.546 Y0.141 E10.82517
G1 X54.255 Y0.141 E10.82617
G1 X54.255 Y99.859 E10.96762
G1 X54.965 Y99.859 E10.96862
G1 X54.965 Y0.141 E11.11007
G1 X55.674 Y0.141 E11.11107
G1 X55.674 Y99.859 E11.25252
G1 X56.383 Y99.859 E11.25352
G1 X56.383 Y0.141 E11.39497
G1 X57.092 Y0.141 E11.39597
G1 X57.092 Y99.859 E11.53742
G1 X57.802 Y99.859 E11.53842
G1 X57.802 Y0.141 E11.67987
G1 X58.511 Y0.141 E11.68087
G1 X58.511 Y99.859 E11.82232
G1 X59.220 Y99.859 E11.82332
G1 X59.220 Y0.141 E11.96477
G1 X59.929 Y0.141 E11.96577
G1 X59.929 Y99.859 E12.10722
G1 X60.639 Y99.859 E12.10822
G1 X60.639 Y0.141 E12.24966
G1 X61.348 Y0.141 E12.25067
G1 X61.348 Y99.859 E12.39211
G1 X62.057 Y99.859 E12.39312
G1 X62.057 Y0.141 E12.53456
G1 X62.766 Y0.141 E12.53557
G1 X62.766 Y99.859 E12.67701
G1 X63.475 Y99.859 E12.67802
G1 X63.475 Y0.141 E12.81946
G1 X64.185 Y0.141 E12.82047
G1 X64.185 Y99.859 E12.96191
G1 X64.894 Y99.859 E12.96292
G1 X64.894 Y0.141 E13.10436
G1 X65.603 Y0.141 E13.10537
G1 X65.603 Y99.859 E13.24681
G1 X66.312 Y99.859 E13.24782
G1 X66.312 Y0.141 E13.38926
G1 X67.022 Y0.141 E13.39027
G1 X67.022 Y99.859 E13.53171
G1 X67.731 Y99.859 E13.53272
G1 X67.731 Y0.141 E13.67416
G1 X68.440 Y0.141 E13.67517
G1 X68.440 Y99.859 E13.81661
G1 X69.149 Y99.859 E13.81762
G1 X69.149 Y0.141 E13.95906
G1 X69.859 Y0.141 E13.96007
G1 X69.859 Y99.859 E14.10151
G1 X70.568 Y99.859 E14.10252
G1 X70.568 Y0.141 E14.24396
G1 X71.277 Y0.141 E14.24497
G1 X71.277 Y99.859 E14.38641
G1 X71.986 Y99.859 E14.38742
G1 X71.986 Y0.141 E14.52886
G1 X72.696 Y0.141 E14.52987
G1 X72.696 Y99.859 E14.67131
G1 X73.405 Y99.859 E14.67232
G1 X73.405 Y0.141 E14.81376
G1 X74.114 Y0.141 E14.81476
G1 X74.114 Y99.859 E14.95621
G1 X74.823 Y99.859 E14.95721
G1 X74.823 Y0.141 E15.09866
G1 X75.533 Y0.141 E15.09966
G1 X75.533 Y99.859 E15.24111
G1 X76.242 Y99.859 E15.24211
G1 X76.242 Y0.141 E15.38356
G1 X76.951 Y0.141 E15.38456
G1 X76.951 Y99.859 E15.52601
G1 X77.660 Y99.859 E15.52701
G1 X77.660 Y0.141 E15.66846
G1 X78.369 Y0.141 E15.66946
G1 X78.369 Y99.859 E15.81091
G1 X79.079 Y99.859 E15.81191
G1 X79.079 Y0.141 E15.95336
G1 X79.788 Y0.141 E15.95436
G1 X79.788 Y99.859 E16.09581
G1 X80.497 Y99.859 E16.09681
G1 X80.497 Y0.141 E16.23826
G1 X81.206 Y0.141 E16.23926
G1 X81.206 Y99.859 E16.38070
G1 X81.916 Y99.859 E16.38171
G1 X81.916 Y0.141 E16.52315
G1 X82.625 Y0.141 E16.52416
G1 X82.625 Y99.859 E16.66560
G1 X83.334 Y99.859 E16.66661
G1 X83.334 Y0.141 E16.80805
G1 X84.043 Y0.141 E16.80906
G1 X84.043 Y99.859 E16.95050
G1 X84.753 Y99.859 E16.95151
G1 X84.753 Y0.141 E17.09295
G1 X85.462 Y0.141 E17.09396
G1 X85.462 Y99.859 E17.23540
G1 X86.171 Y99.859 E17.23641
G1 X86.171 Y0.141 E17.37785
G1 X86.880 Y0.141 E17.37886
G1 X86.880 Y99.859 E17.52030
G1 X87.590 Y99.859 E17.52131
G1 X87.590 Y0.141 E17.66275
G1 X88.299 Y0.141 E17.66376
G1 X88.299 Y99.859 E17.80520
G1 X89.008 Y99.859 E17.80621
G1 X89.008 Y0.141 E17.94765
G1 X89.717 Y0.141 E17.94866
G1 X89.717 Y99.859 E18.09010
G1 X90.426 Y99.859 E18.09111
G1 X90.426 Y0.141 E18.23255
G1 X91.136 Y0.141 E18.23356
G1 X91.136 Y99.859 E18.37500
G1 X91.845 Y99.859 E18.37601
G1 X91.845 Y0.141 E18.51745
G1 X92.554 Y0.141 E18.51846
G1 X92.554 Y99.859 E18.65990
G1 X93.263 Y99.859 E18.66091
G1 X93.263 Y0.141 E18.80235
G1 X93.973 Y0.141 E18.80336
G1 X93.973 Y99.859 E18.94480
G1 X94.682 Y99.859 E18.94580
G1 X94.682 Y0.141 E19.08725
G1 X95.391 Y0.141 E19.08825
G1 X95.391 Y99.859 E19.22970
G1 X96.100 Y99.859 E19.23070
G1 X96.100 Y0.141 E19.37215
G1 X96.810 Y0.141 E19.37315
G1 X96.810 Y99.859 E19.51460
G1 X97.519 Y99.859 E19.51560
G1 X97.519 Y0.141 E19.65705
G1 X98.228 Y0.141 E19.65805
G1 X98.228 Y99.859 E19.79950
G1 X98.937 Y99.859 E19.80050
G1 X98.937 Y0.141 E19.94195
G1 X99.647 Y0.141 E19.94295
G1 X99.647 Y99.859 E20.08440
G92 E0
G1 Z5; move Z 5 mm upper
G1 E-50; move the piston pusher up
M84     ; disable motors

; filament used = 20.1mm (4.0cm3)

; avoid_crossing_perimeters = 0
; bed_shape = 0x0,100x0,100x100,0x100
; bed_temperature = 110
; before_layer_gcode = 
; bridge_acceleration = 0
; bridge_fan_speed = 100
; brim_width = 0
; complete_objects = 0
; cooling = 1
; default_acceleration = 0
; disable_fan_first_layers = 3
; duplicate_distance = 6
; end_gcode = G1 Z5; move Z 5 mm upper\nG1 E-50; move the piston pusher up\nM84     ; disable motors\n
; extruder_clearance_height = 20
; extruder_clearance_radius = 20
; extruder_offset = 0x0
; extrusion_axis = E
; extrusion_multiplier = 1
; fan_always_on = 0
; fan_below_layer_time = 60
; filament_colour = #FFFFFF
; filament_diameter = 15.95
; first_layer_acceleration = 0
; first_layer_bed_temperature = 105
; first_layer_extrusion_width = 730%
; first_layer_speed = 100%
; first_layer_temperature = 0
; gcode_arcs = 0
; gcode_comments = 0
; gcode_flavor = reprap
; infill_acceleration = 0
; infill_first = 0
; layer_gcode = 
; max_fan_speed = 100
; max_print_speed = 80
; max_volumetric_speed = 0
; min_fan_speed = 35
; min_print_speed = 10
; min_skirt_length = 0
; notes = 
; nozzle_diameter = 0.3
; only_retract_when_crossing_perimeters = 1
; ooze_prevention = 0
; output_filename_format = [input_filename_base].gcode
; perimeter_acceleration = 0
; post_process = 
; pressure_advance = 0
; resolution = 0
; retract_before_travel = 2
; retract_layer_change = 0
; retract_length = 0
; retract_length_toolchange = 10
; retract_lift = 0
; retract_lift_above = 0
; retract_lift_below = 0
; retract_restart_extra = 0
; retract_restart_extra_toolchange = 0
; retract_speed = 40
; skirt_distance = 6
; skirt_height = 1
; skirts = 0
; slowdown_below_layer_time = 5
; spiral_vase = 0
; standby_temperature_delta = -5
; start_gcode = G28\nG29\n
; temperature = 0
; threads = 2
; toolchange_gcode = 
; travel_speed = 60
; use_firmware_retraction = 0
; use_relative_e_distances = 0
; use_volumetric_e = 0
; vibration_limit = 0
; wipe = 0
; z_offset = -0.3
; dont_support_bridges = 1
; extrusion_width = 0
; first_layer_height = 0.2
; infill_only_where_needed = 0
; interface_shells = 0
; layer_height = 0.1
; raft_layers = 0
; seam_position = aligned
; support_material = 0
; support_material_angle = 0
; support_material_contact_distance = 0.2
; support_material_enforce_layers = 0
; support_material_extruder = 1
; support_material_extrusion_width = 0
; support_material_interface_extruder = 1
; support_material_interface_layers = 3
; support_material_interface_spacing = 0
; support_material_interface_speed = 100%
; support_material_pattern = pillars
; support_material_spacing = 2.5
; support_material_speed = 60
; support_material_threshold = 0
; xy_size_compensation = 0
; bottom_solid_layers = 0
; bridge_flow_ratio = 1
; bridge_speed = 60
; external_fill_pattern = rectilinear
; external_perimeter_extrusion_width = 0
; external_perimeter_speed = 40
; external_perimeters_first = 0
; extra_perimeters = 1
; fill_angle = 90
; fill_density = 100%
; fill_pattern = rectilinear
; gap_fill_speed = 60
; infill_every_layers = 1
; infill_extruder = 1
; infill_extrusion_width = 0
; infill_overlap = 0%
; infill_speed = 60
; overhangs = 1
; perimeter_extruder = 1
; perimeter_extrusion_width = 0
; perimeter_speed = 40
; perimeters = 0
; small_perimeter_speed = 40
; solid_infill_below_area = 70
; solid_infill_every_layers = 0
; solid_infill_extruder = 1
; solid_infill_extrusion_width = 0
; solid_infill_speed = 60
; thin_walls = 1
; top_infill_extrusion_width = 0
; top_solid_infill_speed = 60
; top_solid_layers = 0
