; generated by Slic3r 1.3.0-dev on 2016-11-25 at 09:39:17

; external perimeters extrusion width = 0.30mm
; perimeters extrusion width = 0.51mm
; infill extrusion width = 0.73mm
; solid infill extrusion width = 0.51mm
; top infill extrusion width = 0.51mm

M107
G28
G29

G21 ; set units to millimeters
G90 ; use absolute coordinates
M82 ; use absolute distances for extrusion
G92 E0
G1 Z0.000 F3600.000
G1 X0.708 Y99.717 F3600.000
G1 F3600
G1 X0.708 Y0.283 E0.14220
G1 X2.137 Y0.283 E0.14424
G1 X2.137 Y99.717 E0.28645
G1 X3.566 Y99.717 E0.28849
G1 X3.566 Y0.283 E0.43069
G1 X4.995 Y0.283 E0.43273
G1 X4.995 Y99.717 E0.57493
G1 X6.423 Y99.717 E0.57698
G1 X6.423 Y0.283 E0.71918
G1 X7.852 Y0.283 E0.72122
G1 X7.852 Y99.717 E0.86342
G1 X9.281 Y99.717 E0.86547
G1 X9.281 Y0.283 E1.00767
G1 X10.710 Y0.283 E1.00971
G1 X10.710 Y99.717 E1.15191
G1 X12.138 Y99.717 E1.15396
G1 X12.138 Y0.283 E1.29616
G1 X13.567 Y0.283 E1.29820
G1 X13.567 Y99.717 E1.44040
G1 X14.996 Y99.717 E1.44244
G1 X14.996 Y0.283 E1.58465
G1 X16.425 Y0.283 E1.58669
G1 X16.425 Y99.717 E1.72889
G1 X17.853 Y99.717 E1.73093
G1 X17.853 Y0.283 E1.87313
G1 X19.282 Y0.283 E1.87518
G1 X19.282 Y99.717 E2.01738
G1 X20.711 Y99.717 E2.01942
G1 X20.711 Y0.283 E2.16162
G1 X22.140 Y0.283 E2.16367
G1 X22.140 Y99.717 E2.30587
G1 X23.568 Y99.717 E2.30791
G1 X23.568 Y0.283 E2.45011
G1 X24.997 Y0.283 E2.45216
G1 X24.997 Y99.717 E2.59436
G1 X26.426 Y99.717 E2.59640
G1 X26.426 Y0.283 E2.73860
G1 X27.855 Y0.283 E2.74064
G1 X27.855 Y99.717 E2.88285
G1 X29.283 Y99.717 E2.88489
G1 X29.283 Y0.283 E3.02709
G1 X30.712 Y0.283 E3.02913
G1 X30.712 Y99.717 E3.17133
G1 X32.141 Y99.717 E3.17338
G1 X32.141 Y0.283 E3.31558
G1 X33.569 Y0.283 E3.31762
G1 X33.569 Y99.717 E3.45982
G1 X34.998 Y99.717 E3.46187
G1 X34.998 Y0.283 E3.60407
G1 X36.427 Y0.283 E3.60611
G1 X36.427 Y99.717 E3.74831
G1 X37.856 Y99.717 E3.75036
G1 X37.856 Y0.283 E3.89256
G1 X39.284 Y0.283 E3.89460
G1 X39.284 Y99.717 E4.03680
G1 X40.713 Y99.717 E4.03884
G1 X40.713 Y0.283 E4.18105
G1 X42.142 Y0.283 E4.18309
G1 X42.142 Y99.717 E4.32529
G1 X43.571 Y99.717 E4.32733
G1 X43.571 Y0.283 E4.46953
G1 X44.999 Y0.283 E4.47158
G1 X44.999 Y99.717 E4.61378
G1 X46.428 Y99.717 E4.61582
G1 X46.428 Y0.283 E4.75802
G1 X47.857 Y0.283 E4.76007
G1 X47.857 Y99.717 E4.90227
G1 X49.286 Y99.717 E4.90431
G1 X49.286 Y0.283 E5.04651
G1 X50.714 Y0.283 E5.04856
G1 X50.714 Y99.717 E5.19076
G1 X52.143 Y99.717 E5.19280
G1 X52.143 Y0.283 E5.33500
G1 X53.572 Y0.283 E5.33704
G1 X53.572 Y99.717 E5.47925
G1 X55.001 Y99.717 E5.48129
G1 X55.001 Y0.283 E5.62349
G1 X56.429 Y0.283 E5.62553
G1 X56.429 Y99.717 E5.76773
G1 X57.858 Y99.717 E5.76978
G1 X57.858 Y0.283 E5.91198
G1 X59.287 Y0.283 E5.91402
G1 X59.287 Y99.717 E6.05622
G1 X60.716 Y99.717 E6.05827
G1 X60.716 Y0.283 E6.20047
G1 X62.144 Y0.283 E6.20251
G1 X62.144 Y99.717 E6.34471
G1 X63.573 Y99.717 E6.34676
G1 X63.573 Y0.283 E6.48896
G1 X65.002 Y0.283 E6.49100
G1 X65.002 Y99.717 E6.63320
G1 X66.430 Y99.717 E6.63524
G1 X66.430 Y0.283 E6.77745
G1 X67.859 Y0.283 E6.77949
G1 X67.859 Y99.717 E6.92169
G1 X69.288 Y99.717 E6.92373
G1 X69.288 Y0.283 E7.06593
G1 X70.717 Y0.283 E7.06798
G1 X70.717 Y99.717 E7.21018
G1 X72.145 Y99.717 E7.21222
G1 X72.145 Y0.283 E7.35442
G1 X73.574 Y0.283 E7.35647
G1 X73.574 Y99.717 E7.49867
G1 X75.003 Y99.717 E7.50071
G1 X75.003 Y0.283 E7.64291
G1 X76.432 Y0.283 E7.64496
G1 X76.432 Y99.717 E7.78716
G1 X77.860 Y99.717 E7.78920
G1 X77.860 Y0.283 E7.93140
G1 X79.289 Y0.283 E7.93344
G1 X79.289 Y99.717 E8.07565
G1 X80.718 Y99.717 E8.07769
G1 X80.718 Y0.283 E8.21989
G1 X82.147 Y0.283 E8.22193
G1 X82.147 Y99.717 E8.36413
G1 X83.575 Y99.717 E8.36618
G1 X83.575 Y0.283 E8.50838
G1 X85.004 Y0.283 E8.51042
G1 X85.004 Y99.717 E8.65262
G1 X86.433 Y99.717 E8.65467
G1 X86.433 Y0.283 E8.79687
G1 X87.862 Y0.283 E8.79891
G1 X87.862 Y99.717 E8.94111
G1 X89.290 Y99.717 E8.94316
G1 X89.290 Y0.283 E9.08536
G1 X90.719 Y0.283 E9.08740
G1 X90.719 Y99.717 E9.22960
G1 X92.148 Y99.717 E9.23164
G1 X92.148 Y0.283 E9.37385
G1 X93.577 Y0.283 E9.37589
G1 X93.577 Y99.717 E9.51809
G1 X95.005 Y99.717 E9.52013
G1 X95.005 Y0.283 E9.66233
G1 X96.434 Y0.283 E9.66438
G1 X96.434 Y99.717 E9.80658
G1 X97.863 Y99.717 E9.80862
G1 X97.863 Y0.283 E9.95082
G1 X99.291 Y0.283 E9.95287
G1 X99.291 Y99.717 E10.09507
G92 E0
G1 Z5;
G1 E-50;
M84     ; disable motors

; filament used = 10.1mm (2.0cm3)

; avoid_crossing_perimeters = 0
; bed_shape = 0x0,100x0,100x100,0x100
; bed_temperature = 0
; before_layer_gcode = 
; bridge_acceleration = 0
; bridge_fan_speed = 100
; brim_width = 0
; complete_objects = 0
; cooling = 1
; default_acceleration = 0
; disable_fan_first_layers = 3
; duplicate_distance = 6
; end_gcode = G1 Z5;\nG1 E-50;\nM84     ; disable motors\n
; extruder_clearance_height = 20
; extruder_clearance_radius = 20
; extruder_offset = 0x0
; extrusion_axis = E
; extrusion_multiplier = 1
; fan_always_on = 0
; fan_below_layer_time = 60
; filament_colour = #FFFFFF
; filament_diameter = 15.95
; first_layer_acceleration = 0
; first_layer_bed_temperature = 0
; first_layer_extrusion_width = 730%
; first_layer_speed = 100%
; first_layer_temperature = 0
; gcode_arcs = 0
; gcode_comments = 0
; gcode_flavor = reprap
; infill_acceleration = 0
; infill_first = 0
; layer_gcode = 
; max_fan_speed = 100
; max_print_speed = 80
; max_volumetric_speed = 0
; min_fan_speed = 35
; min_print_speed = 10
; min_skirt_length = 0
; notes = 
; nozzle_diameter = 0.3
; only_retract_when_crossing_perimeters = 1
; ooze_prevention = 0
; output_filename_format = [input_filename_base].gcode
; perimeter_acceleration = 0
; post_process = 
; pressure_advance = 0
; resolution = 0
; retract_before_travel = 2
; retract_layer_change = 0
; retract_length = 0
; retract_length_toolchange = 10
; retract_lift = 0
; retract_lift_above = 0
; retract_lift_below = 0
; retract_restart_extra = 0
; retract_restart_extra_toolchange = 0
; retract_speed = 40
; skirt_distance = 6
; skirt_height = 1
; skirts = 0
; slowdown_below_layer_time = 5
; spiral_vase = 0
; standby_temperature_delta = -5
; start_gcode = G28\nG29\n
; temperature = 0
; threads = 2
; toolchange_gcode = 
; travel_speed = 60
; use_firmware_retraction = 0
; use_relative_e_distances = 0
; use_volumetric_e = 0
; vibration_limit = 0
; wipe = 0
; z_offset = -0.2
; dont_support_bridges = 1
; extrusion_width = 0
; first_layer_height = 0.2
; infill_only_where_needed = 0
; interface_shells = 0
; layer_height = 0.1
; raft_layers = 0
; seam_position = aligned
; support_material = 0
; support_material_angle = 0
; support_material_contact_distance = 0.2
; support_material_enforce_layers = 0
; support_material_extruder = 1
; support_material_extrusion_width = 0
; support_material_interface_extruder = 1
; support_material_interface_layers = 3
; support_material_interface_spacing = 0
; support_material_interface_speed = 100%
; support_material_pattern = pillars
; support_material_spacing = 2.5
; support_material_speed = 60
; support_material_threshold = 0
; xy_size_compensation = 0
; bottom_solid_layers = 3
; bridge_flow_ratio = 1
; bridge_speed = 60
; external_fill_pattern = rectilinear
; external_perimeter_extrusion_width = 0
; external_perimeter_speed = 40
; external_perimeters_first = 0
; extra_perimeters = 1
; fill_angle = 90
; fill_density = 100%
; fill_pattern = rectilinear
; gap_fill_speed = 60
; infill_every_layers = 1
; infill_extruder = 1
; infill_extrusion_width = 0
; infill_overlap = 0%
; infill_speed = 60
; overhangs = 1
; perimeter_extruder = 1
; perimeter_extrusion_width = 0
; perimeter_speed = 40
; perimeters = 0
; small_perimeter_speed = 40
; solid_infill_below_area = 70
; solid_infill_every_layers = 0
; solid_infill_extruder = 1
; solid_infill_extrusion_width = 0
; solid_infill_speed = 60
; thin_walls = 1
; top_infill_extrusion_width = 0
; top_solid_infill_speed = 60
; top_solid_layers = 0
