; generated by Slic3r 1.3.0-dev on 2016-11-28 at 01:33:35

; external perimeters extrusion width = 0.30mm
; perimeters extrusion width = 0.51mm
; infill extrusion width = 0.73mm
; solid infill extrusion width = 0.51mm
; top infill extrusion width = 0.51mm

M107
M190 S105 ; set bed temperature and wait for it to be reached
G28
G29

G21 ; set units to millimeters
G90 ; use absolute coordinates
M82 ; use absolute distances for extrusion
G92 E0
G1 Z-0.100 F3600.000
G1 X1.560 Y99.879 F3600.000
G1 F3600
G1 X1.560 Y0.141 E0.14147
G1 X3.916 Y0.141 E0.14481
G1 X3.916 Y99.879 E0.28629
G1 X6.272 Y99.879 E0.28963
G1 X6.272 Y0.141 E0.43110
G1 X8.628 Y0.141 E0.43444
G1 X8.628 Y99.879 E0.57591
G1 X10.985 Y99.879 E0.57926
G1 X10.985 Y0.141 E0.72073
G1 X13.341 Y0.141 E0.72407
G1 X13.341 Y99.879 E0.86554
G1 X15.697 Y99.879 E0.86889
G1 X15.697 Y0.141 E1.01036
G1 X18.053 Y0.141 E1.01370
G1 X18.053 Y99.879 E1.15517
G1 X20.409 Y99.879 E1.15851
G1 X20.409 Y0.141 E1.29999
G1 X22.766 Y0.141 E1.30333
G1 X22.766 Y99.879 E1.44480
G1 X25.122 Y99.879 E1.44814
G1 X25.122 Y0.141 E1.58961
G1 X27.478 Y0.141 E1.59296
G1 X27.478 Y99.879 E1.73443
G1 X29.834 Y99.879 E1.73777
G1 X29.834 Y0.141 E1.87924
G1 X32.190 Y0.141 E1.88258
G1 X32.190 Y99.879 E2.02406
G1 X34.546 Y99.879 E2.02740
G1 X34.546 Y0.141 E2.16887
G1 X36.903 Y0.141 E2.17221
G1 X36.903 Y99.879 E2.31368
G1 X39.259 Y99.879 E2.31703
G1 X39.259 Y0.141 E2.45850
G1 X41.615 Y0.141 E2.46184
G1 X41.615 Y99.879 E2.60331
G1 X43.971 Y99.879 E2.60666
G1 X43.971 Y0.141 E2.74813
G1 X46.327 Y0.141 E2.75147
G1 X46.327 Y99.879 E2.89294
G1 X48.684 Y99.879 E2.89628
G1 X48.684 Y0.141 E3.03776
G1 X51.040 Y0.141 E3.04110
G1 X51.040 Y99.879 E3.18257
G1 X53.396 Y99.879 E3.18591
G1 X53.396 Y0.141 E3.32738
G1 X55.752 Y0.141 E3.33073
G1 X55.752 Y99.879 E3.47220
G1 X58.108 Y99.879 E3.47554
G1 X58.108 Y0.141 E3.61701
G1 X60.465 Y0.141 E3.62035
G1 X60.465 Y99.879 E3.76183
G1 X62.821 Y99.879 E3.76517
G1 X62.821 Y0.141 E3.90664
G1 X65.177 Y0.141 E3.90998
G1 X65.177 Y99.879 E4.05145
G1 X67.533 Y99.879 E4.05480
G1 X67.533 Y0.141 E4.19627
G1 X69.889 Y0.141 E4.19961
G1 X69.889 Y99.879 E4.34108
G1 X72.246 Y99.879 E4.34443
G1 X72.246 Y0.141 E4.48590
G1 X74.602 Y0.141 E4.48924
G1 X74.602 Y99.879 E4.63071
G1 X76.958 Y99.879 E4.63405
G1 X76.958 Y0.141 E4.77553
G1 X79.314 Y0.141 E4.77887
G1 X79.314 Y99.879 E4.92034
G1 X81.670 Y99.879 E4.92368
G1 X81.670 Y0.141 E5.06515
G1 X84.027 Y0.141 E5.06850
G1 X84.027 Y99.879 E5.20997
G1 X86.383 Y99.879 E5.21331
G1 X86.383 Y0.141 E5.35478
G1 X88.739 Y0.141 E5.35812
G1 X88.739 Y99.879 E5.49960
G1 X91.095 Y99.879 E5.50294
G1 X91.095 Y0.141 E5.64441
G1 X93.451 Y0.141 E5.64775
G1 X93.451 Y99.879 E5.78923
G1 X95.808 Y99.879 E5.79257
G1 X95.808 Y0.141 E5.93404
G1 X98.164 Y0.141 E5.93738
G1 X98.164 Y99.879 E6.07885
G92 E0
G1 Z5; move Z 5 mm upper
G1 E-50; move the piston pusher up
M84     ; disable motors

; filament used = 6.1mm (1.2cm3)

; avoid_crossing_perimeters = 0
; bed_shape = 0x0,100x0,100x100,0x100
; bed_temperature = 110
; before_layer_gcode = 
; bridge_acceleration = 0
; bridge_fan_speed = 100
; brim_width = 0
; complete_objects = 0
; cooling = 1
; default_acceleration = 0
; disable_fan_first_layers = 3
; duplicate_distance = 6
; end_gcode = G1 Z5; move Z 5 mm upper\nG1 E-50; move the piston pusher up\nM84     ; disable motors\n
; extruder_clearance_height = 20
; extruder_clearance_radius = 20
; extruder_offset = 0x0
; extrusion_axis = E
; extrusion_multiplier = 1
; fan_always_on = 0
; fan_below_layer_time = 60
; filament_colour = #FFFFFF
; filament_diameter = 15.95
; first_layer_acceleration = 0
; first_layer_bed_temperature = 105
; first_layer_extrusion_width = 730%
; first_layer_speed = 100%
; first_layer_temperature = 0
; gcode_arcs = 0
; gcode_comments = 0
; gcode_flavor = reprap
; infill_acceleration = 0
; infill_first = 0
; layer_gcode = 
; max_fan_speed = 100
; max_print_speed = 80
; max_volumetric_speed = 0
; min_fan_speed = 35
; min_print_speed = 10
; min_skirt_length = 0
; notes = 
; nozzle_diameter = 0.3
; only_retract_when_crossing_perimeters = 1
; ooze_prevention = 0
; output_filename_format = [input_filename_base].gcode
; perimeter_acceleration = 0
; post_process = 
; pressure_advance = 0
; resolution = 0
; retract_before_travel = 2
; retract_layer_change = 0
; retract_length = 0
; retract_length_toolchange = 10
; retract_lift = 0
; retract_lift_above = 0
; retract_lift_below = 0
; retract_restart_extra = 0
; retract_restart_extra_toolchange = 0
; retract_speed = 40
; skirt_distance = 6
; skirt_height = 1
; skirts = 0
; slowdown_below_layer_time = 5
; spiral_vase = 0
; standby_temperature_delta = -5
; start_gcode = G28\nG29\n
; temperature = 0
; threads = 2
; toolchange_gcode = 
; travel_speed = 60
; use_firmware_retraction = 0
; use_relative_e_distances = 0
; use_volumetric_e = 0
; vibration_limit = 0
; wipe = 0
; z_offset = -0.3
; dont_support_bridges = 1
; extrusion_width = 0
; first_layer_height = 0.2
; infill_only_where_needed = 0
; interface_shells = 0
; layer_height = 0.1
; raft_layers = 0
; seam_position = aligned
; support_material = 0
; support_material_angle = 0
; support_material_contact_distance = 0.2
; support_material_enforce_layers = 0
; support_material_extruder = 1
; support_material_extrusion_width = 0
; support_material_interface_extruder = 1
; support_material_interface_layers = 3
; support_material_interface_spacing = 0
; support_material_interface_speed = 100%
; support_material_pattern = pillars
; support_material_spacing = 2.5
; support_material_speed = 60
; support_material_threshold = 0
; xy_size_compensation = 0
; bottom_solid_layers = 0
; bridge_flow_ratio = 1
; bridge_speed = 60
; external_fill_pattern = rectilinear
; external_perimeter_extrusion_width = 0
; external_perimeter_speed = 40
; external_perimeters_first = 0
; extra_perimeters = 1
; fill_angle = 90
; fill_density = 30%
; fill_pattern = rectilinear
; gap_fill_speed = 60
; infill_every_layers = 1
; infill_extruder = 1
; infill_extrusion_width = 0
; infill_overlap = 0%
; infill_speed = 60
; overhangs = 1
; perimeter_extruder = 1
; perimeter_extrusion_width = 0
; perimeter_speed = 40
; perimeters = 0
; small_perimeter_speed = 40
; solid_infill_below_area = 70
; solid_infill_every_layers = 0
; solid_infill_extruder = 1
; solid_infill_extrusion_width = 0
; solid_infill_speed = 60
; thin_walls = 1
; top_infill_extrusion_width = 0
; top_solid_infill_speed = 60
; top_solid_layers = 0
