; generated by Slic3r 1.3.0-dev on 2016-11-25 at 15:31:56

; external perimeters extrusion width = 0.30mm
; perimeters extrusion width = 0.51mm
; infill extrusion width = 0.73mm
; solid infill extrusion width = 0.51mm
; top infill extrusion width = 0.51mm

M107
G28
G29

G21 ; set units to millimeters
G90 ; use absolute coordinates
M82 ; use absolute distances for extrusion
G92 E0
G1 Z-0.100 F3600.000
G1 X3.628 Y97.379 F3600.000
G1 F3600
G1 X3.628 Y2.641 E0.06705
G1 X5.985 Y2.641 E0.06872
G1 X5.985 Y97.379 E0.13577
G1 X8.341 Y97.379 E0.13744
G1 X8.341 Y2.641 E0.20449
G1 X10.697 Y2.641 E0.20616
G1 X10.697 Y97.379 E0.27321
G1 X13.053 Y97.379 E0.27488
G1 X13.053 Y2.641 E0.34193
G1 X15.409 Y2.641 E0.34360
G1 X15.409 Y97.379 E0.41065
G1 X17.766 Y97.379 E0.41231
G1 X17.766 Y2.641 E0.47937
G1 X20.122 Y2.641 E0.48103
G1 X20.122 Y97.379 E0.54808
G1 X22.478 Y97.379 E0.54975
G1 X22.478 Y2.641 E0.61680
G1 X24.834 Y2.641 E0.61847
G1 X24.834 Y97.379 E0.68552
G1 X27.190 Y97.379 E0.68719
G1 X27.190 Y2.641 E0.75424
G1 X29.546 Y2.641 E0.75591
G1 X29.546 Y97.379 E0.82296
G1 X31.903 Y97.379 E0.82463
G1 X31.903 Y2.641 E0.89168
G1 X34.259 Y2.641 E0.89335
G1 X34.259 Y97.379 E0.96040
G1 X36.615 Y97.379 E0.96207
G1 X36.615 Y2.641 E1.02912
G1 X38.971 Y2.641 E1.03079
G1 X38.971 Y97.379 E1.09784
G1 X41.327 Y97.379 E1.09951
G1 X41.327 Y2.641 E1.16656
G1 X43.684 Y2.641 E1.16822
G1 X43.684 Y97.379 E1.23528
G1 X46.040 Y97.379 E1.23694
G1 X46.040 Y2.641 E1.30399
G1 X48.396 Y2.641 E1.30566
G1 X48.396 Y97.379 E1.37271
G1 X50.752 Y97.379 E1.37438
G1 X50.752 Y2.641 E1.44143
G1 X53.108 Y2.641 E1.44310
G1 X53.108 Y97.379 E1.51015
G1 X55.465 Y97.379 E1.51182
G1 X55.465 Y2.641 E1.57887
G1 X57.821 Y2.641 E1.58054
G1 X57.821 Y97.379 E1.64759
G1 X60.177 Y97.379 E1.64926
G1 X60.177 Y2.641 E1.71631
G1 X62.533 Y2.641 E1.71798
G1 X62.533 Y97.379 E1.78503
G1 X64.889 Y97.379 E1.78670
G1 X64.889 Y2.641 E1.85375
G1 X67.246 Y2.641 E1.85541
G1 X67.246 Y97.379 E1.92247
G1 X69.602 Y97.379 E1.92413
G1 X69.602 Y2.641 E1.99119
G1 X71.958 Y2.641 E1.99285
G1 X71.958 Y97.379 E2.05990
G1 X74.314 Y97.379 E2.06157
G1 X74.314 Y2.641 E2.12862
G1 X76.670 Y2.641 E2.13029
G1 X76.670 Y97.379 E2.19734
G1 X79.027 Y97.379 E2.19901
G1 X79.027 Y2.641 E2.26606
G1 X81.383 Y2.641 E2.26773
G1 X81.383 Y97.379 E2.33478
G1 X83.739 Y97.379 E2.33645
G1 X83.739 Y2.641 E2.40350
G1 X86.095 Y2.641 E2.40517
G1 X86.095 Y97.379 E2.47222
G1 X88.451 Y97.379 E2.47389
G1 X88.451 Y2.641 E2.54094
G1 X90.808 Y2.641 E2.54261
G1 X90.808 Y97.379 E2.60966
G1 X93.164 Y97.379 E2.61132
G1 X93.164 Y2.641 E2.67838
G1 X95.520 Y2.641 E2.68004
G1 X95.520 Y97.379 E2.74710
G92 E0
G1 Z5; move Z 5 mm upper
G1 E-50; move the piston pusher up
M84     ; disable motors

; filament used = 2.7mm (0.5cm3)

; avoid_crossing_perimeters = 0
; bed_shape = 0x0,100x0,100x100,0x100
; bed_temperature = 0
; before_layer_gcode = 
; bridge_acceleration = 0
; bridge_fan_speed = 100
; brim_width = 0
; complete_objects = 0
; cooling = 1
; default_acceleration = 0
; disable_fan_first_layers = 3
; duplicate_distance = 6
; end_gcode = G1 Z5; move Z 5 mm upper\nG1 E-50; move the piston pusher up\nM84     ; disable motors\n
; extruder_clearance_height = 20
; extruder_clearance_radius = 20
; extruder_offset = 0x0
; extrusion_axis = E
; extrusion_multiplier = 1
; fan_always_on = 0
; fan_below_layer_time = 60
; filament_colour = #FFFFFF
; filament_diameter = 15.95
; first_layer_acceleration = 0
; first_layer_bed_temperature = 0
; first_layer_extrusion_width = 375%
; first_layer_speed = 100%
; first_layer_temperature = 0
; gcode_arcs = 0
; gcode_comments = 0
; gcode_flavor = reprap
; infill_acceleration = 0
; infill_first = 0
; layer_gcode = 
; max_fan_speed = 100
; max_print_speed = 80
; max_volumetric_speed = 0
; min_fan_speed = 35
; min_print_speed = 10
; min_skirt_length = 0
; notes = 
; nozzle_diameter = 0.3
; only_retract_when_crossing_perimeters = 1
; ooze_prevention = 0
; output_filename_format = [input_filename_base].gcode
; perimeter_acceleration = 0
; post_process = 
; pressure_advance = 0
; resolution = 0
; retract_before_travel = 2
; retract_layer_change = 0
; retract_length = 0
; retract_length_toolchange = 10
; retract_lift = 0
; retract_lift_above = 0
; retract_lift_below = 0
; retract_restart_extra = 0
; retract_restart_extra_toolchange = 0
; retract_speed = 40
; skirt_distance = 6
; skirt_height = 1
; skirts = 0
; slowdown_below_layer_time = 5
; spiral_vase = 0
; standby_temperature_delta = -5
; start_gcode = G28\nG29\n
; temperature = 0
; threads = 2
; toolchange_gcode = 
; travel_speed = 60
; use_firmware_retraction = 0
; use_relative_e_distances = 0
; use_volumetric_e = 0
; vibration_limit = 0
; wipe = 0
; z_offset = -0.3
; dont_support_bridges = 1
; extrusion_width = 0
; first_layer_height = 0.2
; infill_only_where_needed = 0
; interface_shells = 0
; layer_height = 0.1
; raft_layers = 0
; seam_position = aligned
; support_material = 0
; support_material_angle = 0
; support_material_contact_distance = 0.2
; support_material_enforce_layers = 0
; support_material_extruder = 1
; support_material_extrusion_width = 0
; support_material_interface_extruder = 1
; support_material_interface_layers = 3
; support_material_interface_spacing = 0
; support_material_interface_speed = 100%
; support_material_pattern = pillars
; support_material_spacing = 2.5
; support_material_speed = 60
; support_material_threshold = 0
; xy_size_compensation = 0
; bottom_solid_layers = 0
; bridge_flow_ratio = 1
; bridge_speed = 60
; external_fill_pattern = rectilinear
; external_perimeter_extrusion_width = 0
; external_perimeter_speed = 40
; external_perimeters_first = 0
; extra_perimeters = 1
; fill_angle = 90
; fill_density = 30%
; fill_pattern = rectilinear
; gap_fill_speed = 60
; infill_every_layers = 1
; infill_extruder = 1
; infill_extrusion_width = 0
; infill_overlap = 0%
; infill_speed = 60
; overhangs = 1
; perimeter_extruder = 1
; perimeter_extrusion_width = 0
; perimeter_speed = 40
; perimeters = 0
; small_perimeter_speed = 40
; solid_infill_below_area = 70
; solid_infill_every_layers = 0
; solid_infill_extruder = 1
; solid_infill_extrusion_width = 0
; solid_infill_speed = 60
; thin_walls = 1
; top_infill_extrusion_width = 0
; top_solid_infill_speed = 60
; top_solid_layers = 0
