; generated by Slic3r 1.3.0-dev on 2016-11-25 at 16:55:39

; external perimeters extrusion width = 0.30mm
; perimeters extrusion width = 0.51mm
; infill extrusion width = 0.73mm
; solid infill extrusion width = 0.51mm
; top infill extrusion width = 0.51mm

M107
G28
G29

G21 ; set units to millimeters
G90 ; use absolute coordinates
M82 ; use absolute distances for extrusion
G92 E0
G1 Z-0.100 F3600.000
G1 X2.853 Y97.359 F3600.000
G1 F3600
G1 X2.853 Y2.641 E0.13435
G1 X3.562 Y2.641 E0.13536
G1 X3.562 Y97.359 E0.26971
G1 X4.271 Y97.359 E0.27071
G1 X4.271 Y2.641 E0.40507
G1 X4.980 Y2.641 E0.40607
G1 X4.980 Y97.359 E0.54042
G1 X5.689 Y97.359 E0.54143
G1 X5.689 Y2.641 E0.67578
G1 X6.398 Y2.641 E0.67679
G1 X6.398 Y97.359 E0.81114
G1 X7.107 Y97.359 E0.81214
G1 X7.107 Y2.641 E0.94649
G1 X7.816 Y2.641 E0.94750
G1 X7.816 Y97.359 E1.08185
G1 X8.525 Y97.359 E1.08286
G1 X8.525 Y2.641 E1.21721
G1 X9.234 Y2.641 E1.21821
G1 X9.234 Y97.359 E1.35257
G1 X9.943 Y97.359 E1.35357
G1 X9.943 Y2.641 E1.48792
G1 X10.652 Y2.641 E1.48893
G1 X10.652 Y97.359 E1.62328
G1 X11.361 Y97.359 E1.62429
G1 X11.361 Y2.641 E1.75864
G1 X12.070 Y2.641 E1.75964
G1 X12.070 Y97.359 E1.89400
G1 X12.779 Y97.359 E1.89500
G1 X12.779 Y2.641 E2.02935
G1 X13.488 Y2.641 E2.03036
G1 X13.488 Y97.359 E2.16471
G1 X14.197 Y97.359 E2.16572
G1 X14.197 Y2.641 E2.30007
G1 X14.906 Y2.641 E2.30107
G1 X14.906 Y97.359 E2.43542
G1 X15.615 Y97.359 E2.43643
G1 X15.615 Y2.641 E2.57078
G1 X16.324 Y2.641 E2.57179
G1 X16.324 Y97.359 E2.70614
G1 X17.033 Y97.359 E2.70714
G1 X17.033 Y2.641 E2.84150
G1 X17.742 Y2.641 E2.84250
G1 X17.742 Y97.359 E2.97685
G1 X18.451 Y97.359 E2.97786
G1 X18.451 Y2.641 E3.11221
G1 X19.160 Y2.641 E3.11322
G1 X19.160 Y97.359 E3.24757
G1 X19.869 Y97.359 E3.24857
G1 X19.869 Y2.641 E3.38292
G1 X20.578 Y2.641 E3.38393
G1 X20.578 Y97.359 E3.51828
G1 X21.287 Y97.359 E3.51929
G1 X21.287 Y2.641 E3.65364
G1 X21.996 Y2.641 E3.65464
G1 X21.996 Y97.359 E3.78900
G1 X22.705 Y97.359 E3.79000
G1 X22.705 Y2.641 E3.92435
G1 X23.414 Y2.641 E3.92536
G1 X23.414 Y97.359 E4.05971
G1 X24.122 Y97.359 E4.06072
G1 X24.122 Y2.641 E4.19507
G1 X24.831 Y2.641 E4.19607
G1 X24.831 Y97.359 E4.33043
G1 X25.540 Y97.359 E4.33143
G1 X25.540 Y2.641 E4.46578
G1 X26.249 Y2.641 E4.46679
G1 X26.249 Y97.359 E4.60114
G1 X26.958 Y97.359 E4.60215
G1 X26.958 Y2.641 E4.73650
G1 X27.667 Y2.641 E4.73750
G1 X27.667 Y97.359 E4.87185
G1 X28.376 Y97.359 E4.87286
G1 X28.376 Y2.641 E5.00721
G1 X29.085 Y2.641 E5.00822
G1 X29.085 Y97.359 E5.14257
G1 X29.794 Y97.359 E5.14357
G1 X29.794 Y2.641 E5.27793
G1 X30.503 Y2.641 E5.27893
G1 X30.503 Y97.359 E5.41328
G1 X31.212 Y97.359 E5.41429
G1 X31.212 Y2.641 E5.54864
G1 X31.921 Y2.641 E5.54965
G1 X31.921 Y97.359 E5.68400
G1 X32.630 Y97.359 E5.68500
G1 X32.630 Y2.641 E5.81935
G1 X33.339 Y2.641 E5.82036
G1 X33.339 Y97.359 E5.95471
G1 X34.048 Y97.359 E5.95572
G1 X34.048 Y2.641 E6.09007
G1 X34.757 Y2.641 E6.09107
G1 X34.757 Y97.359 E6.22543
G1 X35.466 Y97.359 E6.22643
G1 X35.466 Y2.641 E6.36078
G1 X36.175 Y2.641 E6.36179
G1 X36.175 Y97.359 E6.49614
G1 X36.884 Y97.359 E6.49715
G1 X36.884 Y2.641 E6.63150
G1 X37.593 Y2.641 E6.63250
G1 X37.593 Y97.359 E6.76686
G1 X38.302 Y97.359 E6.76786
G1 X38.302 Y2.641 E6.90221
G1 X39.011 Y2.641 E6.90322
G1 X39.011 Y97.359 E7.03757
G1 X39.720 Y97.359 E7.03858
G1 X39.720 Y2.641 E7.17293
G1 X40.429 Y2.641 E7.17393
G1 X40.429 Y97.359 E7.30828
G1 X41.138 Y97.359 E7.30929
G1 X41.138 Y2.641 E7.44364
G1 X41.847 Y2.641 E7.44465
G1 X41.847 Y97.359 E7.57900
G1 X42.556 Y97.359 E7.58000
G1 X42.556 Y2.641 E7.71436
G1 X43.265 Y2.641 E7.71536
G1 X43.265 Y97.359 E7.84971
G1 X43.974 Y97.359 E7.85072
G1 X43.974 Y2.641 E7.98507
G1 X44.683 Y2.641 E7.98608
G1 X44.683 Y97.359 E8.12043
G1 X45.392 Y97.359 E8.12143
G1 X45.392 Y2.641 E8.25578
G1 X46.101 Y2.641 E8.25679
G1 X46.101 Y97.359 E8.39114
G1 X46.810 Y97.359 E8.39215
G1 X46.810 Y2.641 E8.52650
G1 X47.519 Y2.641 E8.52750
G1 X47.519 Y97.359 E8.66186
G1 X48.228 Y97.359 E8.66286
G1 X48.228 Y2.641 E8.79721
G1 X48.937 Y2.641 E8.79822
G1 X48.937 Y97.359 E8.93257
G1 X49.645 Y97.359 E8.93358
G1 X49.645 Y2.641 E9.06793
G1 X50.354 Y2.641 E9.06893
G1 X50.354 Y97.359 E9.20329
G1 X51.063 Y97.359 E9.20429
G1 X51.063 Y2.641 E9.33864
G1 X51.772 Y2.641 E9.33965
G1 X51.772 Y97.359 E9.47400
G1 X52.481 Y97.359 E9.47501
G1 X52.481 Y2.641 E9.60936
G1 X53.190 Y2.641 E9.61036
G1 X53.190 Y97.359 E9.74471
G1 X53.899 Y97.359 E9.74572
G1 X53.899 Y2.641 E9.88007
G1 X54.608 Y2.641 E9.88108
G1 X54.608 Y97.359 E10.01543
G1 X55.317 Y97.359 E10.01643
G1 X55.317 Y2.641 E10.15079
G1 X56.026 Y2.641 E10.15179
G1 X56.026 Y97.359 E10.28614
G1 X56.735 Y97.359 E10.28715
G1 X56.735 Y2.641 E10.42150
G1 X57.444 Y2.641 E10.42251
G1 X57.444 Y97.359 E10.55686
G1 X58.153 Y97.359 E10.55786
G1 X58.153 Y2.641 E10.69221
G1 X58.862 Y2.641 E10.69322
G1 X58.862 Y97.359 E10.82757
G1 X59.571 Y97.359 E10.82858
G1 X59.571 Y2.641 E10.96293
G1 X60.280 Y2.641 E10.96393
G1 X60.280 Y97.359 E11.09829
G1 X60.989 Y97.359 E11.09929
G1 X60.989 Y2.641 E11.23364
G1 X61.698 Y2.641 E11.23465
G1 X61.698 Y97.359 E11.36900
G1 X62.407 Y97.359 E11.37001
G1 X62.407 Y2.641 E11.50436
G1 X63.116 Y2.641 E11.50536
G1 X63.116 Y97.359 E11.63972
G1 X63.825 Y97.359 E11.64072
G1 X63.825 Y2.641 E11.77507
G1 X64.534 Y2.641 E11.77608
G1 X64.534 Y97.359 E11.91043
G1 X65.243 Y97.359 E11.91144
G1 X65.243 Y2.641 E12.04579
G1 X65.952 Y2.641 E12.04679
G1 X65.952 Y97.359 E12.18114
G1 X66.661 Y97.359 E12.18215
G1 X66.661 Y2.641 E12.31650
G1 X67.370 Y2.641 E12.31751
G1 X67.370 Y97.359 E12.45186
G1 X68.079 Y97.359 E12.45286
G1 X68.079 Y2.641 E12.58722
G1 X68.788 Y2.641 E12.58822
G1 X68.788 Y97.359 E12.72257
G1 X69.497 Y97.359 E12.72358
G1 X69.497 Y2.641 E12.85793
G1 X70.206 Y2.641 E12.85894
G1 X70.206 Y97.359 E12.99329
G1 X70.915 Y97.359 E12.99429
G1 X70.915 Y2.641 E13.12864
G1 X71.624 Y2.641 E13.12965
G1 X71.624 Y97.359 E13.26400
G1 X72.333 Y97.359 E13.26501
G1 X72.333 Y2.641 E13.39936
G1 X73.042 Y2.641 E13.40036
G1 X73.042 Y97.359 E13.53472
G1 X73.751 Y97.359 E13.53572
G1 X73.751 Y2.641 E13.67007
G1 X74.460 Y2.641 E13.67108
G1 X74.460 Y97.359 E13.80543
G1 X75.168 Y97.359 E13.80644
G1 X75.168 Y2.641 E13.94079
G1 X75.877 Y2.641 E13.94179
G1 X75.877 Y97.359 E14.07615
G1 X76.586 Y97.359 E14.07715
G1 X76.586 Y2.641 E14.21150
G1 X77.295 Y2.641 E14.21251
G1 X77.295 Y97.359 E14.34686
G1 X78.004 Y97.359 E14.34787
G1 X78.004 Y2.641 E14.48222
G1 X78.713 Y2.641 E14.48322
G1 X78.713 Y97.359 E14.61757
G1 X79.422 Y97.359 E14.61858
G1 X79.422 Y2.641 E14.75293
G1 X80.131 Y2.641 E14.75394
G1 X80.131 Y97.359 E14.88829
G1 X80.840 Y97.359 E14.88929
G1 X80.840 Y2.641 E15.02365
G1 X81.549 Y2.641 E15.02465
G1 X81.549 Y97.359 E15.15900
G1 X82.258 Y97.359 E15.16001
G1 X82.258 Y2.641 E15.29436
G1 X82.967 Y2.641 E15.29537
G1 X82.967 Y97.359 E15.42972
G1 X83.676 Y97.359 E15.43072
G1 X83.676 Y2.641 E15.56507
G1 X84.385 Y2.641 E15.56608
G1 X84.385 Y97.359 E15.70043
G1 X85.094 Y97.359 E15.70144
G1 X85.094 Y2.641 E15.83579
G1 X85.803 Y2.641 E15.83679
G1 X85.803 Y97.359 E15.97115
G1 X86.512 Y97.359 E15.97215
G1 X86.512 Y2.641 E16.10650
G1 X87.221 Y2.641 E16.10751
G1 X87.221 Y97.359 E16.24186
G1 X87.930 Y97.359 E16.24287
G1 X87.930 Y2.641 E16.37722
G1 X88.639 Y2.641 E16.37822
G1 X88.639 Y97.359 E16.51258
G1 X89.348 Y97.359 E16.51358
G1 X89.348 Y2.641 E16.64793
G1 X90.057 Y2.641 E16.64894
G1 X90.057 Y97.359 E16.78329
G1 X90.766 Y97.359 E16.78430
G1 X90.766 Y2.641 E16.91865
G1 X91.475 Y2.641 E16.91965
G1 X91.475 Y97.359 E17.05400
G1 X92.184 Y97.359 E17.05501
G1 X92.184 Y2.641 E17.18936
G1 X92.893 Y2.641 E17.19037
G1 X92.893 Y97.359 E17.32472
G1 X93.602 Y97.359 E17.32572
G1 X93.602 Y2.641 E17.46008
G1 X94.311 Y2.641 E17.46108
G1 X94.311 Y97.359 E17.59543
G1 X95.020 Y97.359 E17.59644
G1 X95.020 Y2.641 E17.73079
G1 X95.729 Y2.641 E17.73180
G1 X95.729 Y97.359 E17.86615
G1 X96.438 Y97.359 E17.86715
G1 X96.438 Y2.641 E18.00150
G1 X97.147 Y2.641 E18.00251
G1 X97.147 Y97.359 E18.13686
G92 E0
G1 Z5; move Z 5 mm upper
G1 E-50; move the piston pusher up
M84     ; disable motors

; filament used = 18.1mm (3.6cm3)

; avoid_crossing_perimeters = 0
; bed_shape = 0x0,100x0,100x100,0x100
; bed_temperature = 0
; before_layer_gcode = 
; bridge_acceleration = 0
; bridge_fan_speed = 100
; brim_width = 0
; complete_objects = 0
; cooling = 1
; default_acceleration = 0
; disable_fan_first_layers = 3
; duplicate_distance = 6
; end_gcode = G1 Z5; move Z 5 mm upper\nG1 E-50; move the piston pusher up\nM84     ; disable motors\n
; extruder_clearance_height = 20
; extruder_clearance_radius = 20
; extruder_offset = 0x0
; extrusion_axis = E
; extrusion_multiplier = 1
; fan_always_on = 0
; fan_below_layer_time = 60
; filament_colour = #FFFFFF
; filament_diameter = 15.95
; first_layer_acceleration = 0
; first_layer_bed_temperature = 0
; first_layer_extrusion_width = 730%
; first_layer_speed = 100%
; first_layer_temperature = 0
; gcode_arcs = 0
; gcode_comments = 0
; gcode_flavor = reprap
; infill_acceleration = 0
; infill_first = 0
; layer_gcode = 
; max_fan_speed = 100
; max_print_speed = 80
; max_volumetric_speed = 0
; min_fan_speed = 35
; min_print_speed = 10
; min_skirt_length = 0
; notes = 
; nozzle_diameter = 0.3
; only_retract_when_crossing_perimeters = 1
; ooze_prevention = 0
; output_filename_format = [input_filename_base].gcode
; perimeter_acceleration = 0
; post_process = 
; pressure_advance = 0
; resolution = 0
; retract_before_travel = 2
; retract_layer_change = 0
; retract_length = 0
; retract_length_toolchange = 10
; retract_lift = 0
; retract_lift_above = 0
; retract_lift_below = 0
; retract_restart_extra = 0
; retract_restart_extra_toolchange = 0
; retract_speed = 40
; skirt_distance = 6
; skirt_height = 1
; skirts = 0
; slowdown_below_layer_time = 5
; spiral_vase = 0
; standby_temperature_delta = -5
; start_gcode = G28\nG29\n
; temperature = 0
; threads = 2
; toolchange_gcode = 
; travel_speed = 60
; use_firmware_retraction = 0
; use_relative_e_distances = 0
; use_volumetric_e = 0
; vibration_limit = 0
; wipe = 0
; z_offset = -0.3
; dont_support_bridges = 1
; extrusion_width = 0
; first_layer_height = 0.2
; infill_only_where_needed = 0
; interface_shells = 0
; layer_height = 0.1
; raft_layers = 0
; seam_position = aligned
; support_material = 0
; support_material_angle = 0
; support_material_contact_distance = 0.2
; support_material_enforce_layers = 0
; support_material_extruder = 1
; support_material_extrusion_width = 0
; support_material_interface_extruder = 1
; support_material_interface_layers = 3
; support_material_interface_spacing = 0
; support_material_interface_speed = 100%
; support_material_pattern = pillars
; support_material_spacing = 2.5
; support_material_speed = 60
; support_material_threshold = 0
; xy_size_compensation = 0
; bottom_solid_layers = 0
; bridge_flow_ratio = 1
; bridge_speed = 60
; external_fill_pattern = rectilinear
; external_perimeter_extrusion_width = 0
; external_perimeter_speed = 40
; external_perimeters_first = 0
; extra_perimeters = 1
; fill_angle = 90
; fill_density = 100%
; fill_pattern = rectilinear
; gap_fill_speed = 60
; infill_every_layers = 1
; infill_extruder = 1
; infill_extrusion_width = 0
; infill_overlap = 0%
; infill_speed = 60
; overhangs = 1
; perimeter_extruder = 1
; perimeter_extrusion_width = 0
; perimeter_speed = 40
; perimeters = 0
; small_perimeter_speed = 40
; solid_infill_below_area = 70
; solid_infill_every_layers = 0
; solid_infill_extruder = 1
; solid_infill_extrusion_width = 0
; solid_infill_speed = 60
; thin_walls = 1
; top_infill_extrusion_width = 0
; top_solid_infill_speed = 60
; top_solid_layers = 0
