; generated by Slic3r 1.3.0-dev on 2016-11-28 at 15:35:49

; external perimeters extrusion width = 0.30mm
; perimeters extrusion width = 0.51mm
; infill extrusion width = 0.73mm
; solid infill extrusion width = 0.51mm
; top infill extrusion width = 0.51mm

M107
G28
G29

G21 ; set units to millimeters
G90 ; use absolute coordinates
M82 ; use absolute distances for extrusion
G92 E0
G1 Z-0.300 F3600.000
G1 E-1.00000 F2400.00000
G92 E0
G1 X7.138 Y26.449 F3600.000
G1 E1.00000 F2400.00000
G1 F3600
G1 X10.035 Y25.635 E1.00529
G1 X37.604 Y25.379 E1.05378
G1 X86.642 Y25.635 E1.14003
G1 X87.716 Y25.675 E1.14192
G1 X88.206 Y25.716 E1.14278
G1 X89.045 Y25.823 E1.14427
G1 X89.553 Y25.911 E1.14518
G1 X90.362 Y26.088 E1.14664
G1 X90.878 Y26.226 E1.14757
G1 X91.657 Y26.475 E1.14901
G1 X92.180 Y26.670 E1.15000
G1 X92.920 Y26.988 E1.15141
G1 X93.457 Y27.253 E1.15247
G1 X94.146 Y27.638 E1.15385
G1 X94.667 Y27.967 E1.15494
G1 X95.304 Y28.419 E1.15631
G1 X95.791 Y28.806 E1.15741
G1 X96.377 Y29.325 E1.15878
G1 X96.826 Y29.770 E1.15989
G1 X97.358 Y30.356 E1.16129
G1 X97.758 Y30.851 E1.16241
G1 X98.230 Y31.505 E1.16382
G1 X98.560 Y32.016 E1.16489
G1 X98.972 Y32.737 E1.16635
G1 X99.229 Y33.242 E1.16735
G1 X99.582 Y34.030 E1.16887
G1 X99.792 Y34.574 E1.16989
G1 X100.075 Y35.427 E1.17148
G1 X100.232 Y35.999 E1.17252
G1 X100.434 Y36.916 E1.17417
G1 X100.525 Y37.448 E1.17512
G1 X100.646 Y38.428 E1.17686
G1 X100.685 Y38.911 E1.17771
G1 X100.726 Y39.954 E1.17954
G1 X100.683 Y41.468 E1.18221
G1 X100.641 Y41.975 E1.18310
G1 X100.514 Y42.960 E1.18485
G1 X100.411 Y43.529 E1.18587
G1 X100.200 Y44.438 E1.18751
G1 X100.016 Y45.063 E1.18865
G1 X99.720 Y45.895 E1.19021
G1 X99.468 Y46.494 E1.19135
G1 X99.097 Y47.253 E1.19284
G1 X88.036 Y67.916 E1.23406
G1 X87.753 Y68.388 E1.23502
G1 X87.312 Y69.052 E1.23643
G1 X86.931 Y69.561 E1.23755
G1 X86.424 Y70.166 E1.23893
G1 X85.976 Y70.642 E1.24008
G1 X85.405 Y71.184 E1.24147
G1 X84.896 Y71.615 E1.24264
G1 X84.261 Y72.091 E1.24404
G1 X83.722 Y72.449 E1.24517
G1 X83.023 Y72.860 E1.24660
G1 X82.478 Y73.142 E1.24768
G1 X81.715 Y73.487 E1.24915
G1 X81.158 Y73.704 E1.25020
G1 X80.334 Y73.977 E1.25173
G1 X79.767 Y74.134 E1.25276
G1 X78.887 Y74.329 E1.25435
G1 X78.355 Y74.421 E1.25530
G1 X77.418 Y74.538 E1.25696
G1 X76.930 Y74.578 E1.25782
G1 X75.689 Y74.621 E1.26001
G1 X6.925 Y74.365 E1.38095
G1 X4.827 Y73.961 E1.38470
G1 X3.021 Y72.819 E1.38846
G1 X1.756 Y71.097 E1.39222
G1 X1.216 Y69.158 E1.39576
G1 X-0.704 Y49.158 E1.43110
G1 X-0.496 Y46.984 E1.43494
G1 X4.566 Y29.768 E1.46650
G1 X5.538 Y27.865 E1.47026
G1 X7.104 Y26.479 E1.47394
G1 E0.47394 F2400.00000
G92 E0
G1 X68.390 Y59.490 F3600.000
G1 E1.00000 F2400.00000
G1 F2400
G1 X68.401 Y59.206 E1.00066
G1 X68.489 Y58.388 E1.00256
G1 X68.636 Y57.604 E1.00440
G1 X68.840 Y56.859 E1.00618
G1 X69.071 Y56.230 E1.00773
G1 F2400
G1 X69.400 Y55.535 E1.00946
G1 X69.841 Y54.834 E1.01132
G1 F2400
G1 X70.162 Y54.416 E1.01248
G1 X70.620 Y53.930 E1.01395
G1 F2400
G1 X71.292 Y53.378 E1.01581
G1 F2400
G1 X71.911 Y52.990 E1.01733
G1 F2400
G1 X72.576 Y52.669 E1.01882
G1 F2400
G1 X73.084 Y52.480 E1.01988
G1 X73.398 Y52.388 E1.02052
G1 F2400
G1 X74.042 Y52.241 E1.02177
G1 X74.741 Y52.143 E1.02310
G1 X75.650 Y52.098 E1.02482
G1 X76.583 Y52.134 E1.02659
G1 X77.419 Y52.248 E1.02819
G1 F2400
G1 X78.193 Y52.435 E1.02974
G1 X78.919 Y52.699 E1.03124
G1 F2400
G1 X79.567 Y53.019 E1.03269
G1 X80.095 Y53.354 E1.03395
G1 F2400
G1 X80.754 Y53.888 E1.03571
G1 F2400
G1 X81.171 Y54.316 E1.03699
G1 X81.680 Y54.986 E1.03880
G1 F2400
G1 X81.998 Y55.511 E1.04017
G1 X82.358 Y56.285 E1.04208
G1 F2400
G1 X82.541 Y56.787 E1.04330
G1 X82.749 Y57.537 E1.04507
G1 X82.900 Y58.332 E1.04692
G1 X83.000 Y59.296 E1.04913
G1 X83.026 Y60.073 E1.05090
G1 X82.999 Y60.875 E1.05273
G1 X82.905 Y61.767 E1.05478
G1 X82.750 Y62.575 E1.05666
G1 X82.542 Y63.310 E1.05840
G1 X82.281 Y63.990 E1.06006
G1 X81.994 Y64.566 E1.06153
G1 F2400
G1 X81.536 Y65.278 E1.06342
G1 F2400
G1 X81.197 Y65.701 E1.06459
G1 X80.733 Y66.171 E1.06603
G1 F2400
G1 X80.212 Y66.593 E1.06745
G1 F2400
G1 X79.627 Y66.967 E1.06888
G1 F2400
G1 X78.974 Y67.289 E1.07034
G1 F2400
G1 X78.098 Y67.597 E1.07216
G1 F2400
G1 X77.351 Y67.766 E1.07361
G1 X76.483 Y67.873 E1.07526
G1 X75.677 Y67.903 E1.07679
G1 X74.847 Y67.868 E1.07836
G1 X74.150 Y67.781 E1.07969
G1 F2400
G1 X73.149 Y67.555 E1.08169
G1 F2400
G1 X72.586 Y67.360 E1.08289
G1 X72.023 Y67.107 E1.08413
G1 F2400
G1 X71.402 Y66.751 E1.08560
G1 F2400
G1 X70.826 Y66.326 E1.08711
G1 F2400
G1 X70.302 Y65.831 E1.08867
G1 F2400
G1 X69.765 Y65.176 E1.09055
G1 F2400
G1 X69.422 Y64.636 E1.09200
G1 X69.063 Y63.893 E1.09388
G1 F2400
G1 X68.837 Y63.286 E1.09539
G1 X68.646 Y62.600 E1.09704
G1 X68.495 Y61.812 E1.09891
G1 X68.402 Y60.970 E1.10088
G1 X68.371 Y60.073 E1.10297
G1 F2400
G1 X68.389 Y59.535 E1.10421
G1 E0.10421 F2400.00000
G92 E0
G1 X50.319 Y39.488 F3600.000
G1 E1.00000 F2400.00000
G1 F2400
G1 X50.272 Y39.256 E1.00062
G1 F2400
G1 X50.226 Y39.024 E1.00123
G1 F2400
G1 X50.179 Y38.792 E1.00181
G1 F2400
G1 X50.132 Y38.560 E1.00236
G1 F2400
G1 X50.132 Y31.392 E1.01859
G1 E0.01859 F2400.00000
G92 E0
G1 X50.319 Y39.488 F3600.000
G1 E1.00000 F2400.00000
G1 F2400
G1 X50.433 Y39.488 E1.00029
G1 F2400
G1 X50.546 Y39.488 E1.00058
G1 F2400
G1 X50.660 Y39.488 E1.00085
G1 F2400
G1 X50.773 Y39.488 E1.00111
G1 F2400
G1 X50.887 Y39.488 E1.00136
G1 F2400
G1 X51.000 Y39.488 E1.00160
G1 F2400
G1 X51.114 Y39.488 E1.00183
G1 F2400
G1 X51.227 Y39.488 E1.00204
G1 F2400
G1 X56.649 Y39.488 E1.01188
G1 F2400
G1 X56.973 Y39.460 E1.01249
G1 F2400
G1 X57.113 Y39.420 E1.01278
G1 F2400
G1 X57.253 Y39.379 E1.01308
G1 F2400
G1 X57.394 Y39.339 E1.01339
G1 F2400
G1 X57.506 Y39.301 E1.01365
G1 F2400
G1 X57.585 Y39.267 E1.01385
G1 F2400
G1 X57.659 Y39.233 E1.01405
G1 F2400
G1 X57.725 Y39.203 E1.01423
G1 F2400
G1 X57.802 Y39.258 E1.01446
G1 F2400
G1 X57.878 Y39.313 E1.01467
G1 F2400
G1 X57.955 Y39.369 E1.01488
G1 F2400
G1 X58.033 Y39.422 E1.01509
G1 F2400
G1 X58.152 Y39.486 E1.01537
G1 F2400
G1 X58.311 Y39.564 E1.01571
G1 F2400
G1 X58.470 Y39.642 E1.01604
G1 F2400
G1 X59.020 Y39.800 E1.01708
G1 F2400
G1 X59.466 Y39.947 E1.01796
G1 F2400
G1 X59.889 Y40.133 E1.01886
G1 F2400
G1 X60.285 Y40.361 E1.01977
G1 F2400
G1 X60.643 Y40.631 E1.02068
G1 F2400
G1 X60.963 Y40.935 E1.02161
G1 F2400
G1 X61.270 Y41.310 E1.02265
G1 F2400
G1 X61.438 Y41.570 E1.02334
G1 X61.579 Y41.842 E1.02402
G1 X61.796 Y42.418 E1.02539
G1 X61.927 Y43.052 E1.02683
G1 X61.972 Y43.689 E1.02825
G1 X61.942 Y44.222 E1.02943
G1 X61.893 Y44.560 E1.03019
G1 X61.800 Y44.940 E1.03106
G1 X61.604 Y45.450 E1.03227
G1 X61.382 Y45.847 E1.03328
G1 F2400
G1 X61.018 Y46.306 E1.03455
G1 F2400
G1 X60.795 Y46.522 E1.03521
G1 X60.562 Y46.709 E1.03583
G1 F2400
G1 X60.059 Y47.024 E1.03704
G1 F2400
G1 X59.655 Y47.213 E1.03793
G1 F2400
G1 X59.373 Y47.321 E1.03851
G1 X58.871 Y47.468 E1.03951
G1 F2400
G1 X58.320 Y47.579 E1.04055
G1 X57.863 Y47.635 E1.04141
G1 X56.894 Y47.679 E1.04322
G1 X51.284 Y47.680 E1.05366
G1 X51.202 Y47.656 E1.05382
G1 F2400
G1 X51.038 Y47.609 E1.05416
G1 F2400
G1 X50.873 Y47.562 E1.05451
G1 F2400
G1 X50.709 Y47.514 E1.05488
G1 F2400
G1 X50.544 Y47.467 E1.05526
G1 F2400
G1 X50.380 Y47.420 E1.05566
G1 F2400
G1 X50.216 Y47.372 E1.05607
G1 X50.195 Y47.217 E1.05645
G1 F2400
G1 X50.153 Y46.907 E1.05719
G1 F2400
G1 X50.132 Y46.752 E1.05754
G1 X50.132 Y40.416 E1.07188
G1 F2400
G1 X50.179 Y40.184 E1.07244
G1 F2400
G1 X50.226 Y39.952 E1.07302
G1 F2400
G1 X50.272 Y39.720 E1.07362
G1 F2400
G1 X50.319 Y39.488 E1.07425
G1 E0.07425 F2400.00000
G92 E0
G1 X57.725 Y39.203 F3600.000
G1 E1.00000 F2400.00000
G1 F2400
G1 X57.762 Y39.098 E1.00027
G1 F2400
G1 X57.836 Y38.888 E1.00080
G1 F2400
G1 X57.910 Y38.679 E1.00131
G1 F2400
G1 X57.984 Y38.469 E1.00179
G1 F2400
G1 X58.058 Y38.259 E1.00226
G1 X60.266 Y34.826 E1.01086
G1 F2400
G1 X62.474 Y31.392 E1.01980
G1 E0.01980 F2400.00000
G92 E0
G1 X43.942 Y44.613 F3600.000
G1 E1.00000 F2400.00000
G1 F2400
G1 X43.508 Y45.278 E1.00177
G1 F2400
G1 X43.169 Y45.701 E1.00295
G1 X42.705 Y46.171 E1.00438
G1 F2400
G1 X42.184 Y46.593 E1.00580
G1 F2400
G1 X41.599 Y46.967 E1.00723
G1 F2400
G1 X40.946 Y47.289 E1.00870
G1 F2400
G1 X40.069 Y47.597 E1.01051
G1 F2400
G1 X39.323 Y47.766 E1.01196
G1 X38.455 Y47.873 E1.01362
G1 X37.649 Y47.903 E1.01514
G1 X36.819 Y47.868 E1.01672
G1 X36.122 Y47.781 E1.01805
G1 F2400
G1 X35.121 Y47.555 E1.02005
G1 F2400
G1 X34.558 Y47.360 E1.02124
G1 X33.995 Y47.107 E1.02248
G1 F2400
G1 X33.374 Y46.751 E1.02395
G1 F2400
G1 X32.798 Y46.326 E1.02546
G1 F2400
G1 X32.274 Y45.831 E1.02702
G1 F2400
G1 X31.737 Y45.176 E1.02890
G1 F2400
G1 X31.394 Y44.636 E1.03035
G1 X31.034 Y43.893 E1.03223
G1 F2400
G1 X30.808 Y43.286 E1.03374
G1 X30.617 Y42.600 E1.03540
G1 X30.467 Y41.812 E1.03726
G1 X30.374 Y40.970 E1.03923
G1 X30.342 Y40.073 E1.04132
G1 F2400
G1 X30.373 Y39.206 E1.04333
G1 X30.462 Y38.381 E1.04524
G1 X30.609 Y37.599 E1.04708
G1 X30.811 Y36.859 E1.04885
G1 X31.043 Y36.230 E1.05040
G1 F2400
G1 X31.372 Y35.535 E1.05213
G1 X31.813 Y34.834 E1.05399
G1 F2400
G1 X32.134 Y34.416 E1.05515
G1 X32.592 Y33.930 E1.05662
G1 F2400
G1 X33.264 Y33.378 E1.05848
G1 F2400
G1 X33.883 Y32.990 E1.06000
G1 F2400
G1 X34.548 Y32.669 E1.06149
G1 F2400
G1 X35.055 Y32.480 E1.06255
G1 X35.370 Y32.388 E1.06319
G1 F2400
G1 X36.014 Y32.241 E1.06444
G1 X36.713 Y32.143 E1.06577
G1 X37.621 Y32.098 E1.06749
G1 X38.555 Y32.134 E1.06926
G1 X39.391 Y32.248 E1.07086
G1 F2400
G1 X40.165 Y32.435 E1.07241
G1 X40.890 Y32.699 E1.07391
G1 F2400
G1 X41.538 Y33.019 E1.07536
G1 X42.067 Y33.354 E1.07662
G1 F2400
G1 X42.726 Y33.888 E1.07838
G1 F2400
G1 X43.143 Y34.316 E1.07966
G1 X43.652 Y34.986 E1.08147
G1 F2400
G1 X43.969 Y35.511 E1.08284
G1 X44.330 Y36.285 E1.08475
G1 F2400
G1 X44.513 Y36.787 E1.08597
G1 X44.721 Y37.537 E1.08774
G1 X44.872 Y38.332 E1.08959
G1 X44.972 Y39.296 E1.09180
G1 X44.998 Y40.073 E1.09357
G1 X44.970 Y40.875 E1.09540
G1 X44.877 Y41.767 E1.09745
G1 X44.722 Y42.575 E1.09933
G1 X44.514 Y43.310 E1.10107
G1 X44.252 Y43.990 E1.10273
G1 X43.966 Y44.566 E1.10420
G1 F2400
G1 X43.962 Y44.573 E1.10422
G1 E0.10422 F2400.00000
G92 E0
G1 X8.312 Y60.320 F3600.000
G1 E1.00000 F2400.00000
G1 F2400
G1 X8.265 Y60.100 E1.00061
G1 F2400
G1 X8.218 Y59.879 E1.00119
G1 F2400
G1 X8.170 Y59.659 E1.00176
G1 F2400
G1 X8.123 Y59.438 E1.00230
G1 F2400
G1 X8.099 Y59.328 E1.00256
G1 X8.099 Y51.392 E1.02090
G1 E0.02090 F2400.00000
G92 E0
G1 X8.312 Y60.320 F3600.000
G1 E1.00000 F2400.00000
G1 F2400
G1 X8.375 Y60.320 E1.00017
G1 F2400
G1 X8.500 Y60.320 E1.00049
G1 F2400
G1 X8.625 Y60.320 E1.00080
G1 F2400
G1 X8.750 Y60.320 E1.00110
G1 F2400
G1 X8.876 Y60.320 E1.00139
G1 F2400
G1 X9.001 Y60.320 E1.00166
G1 F2400
G1 X9.126 Y60.320 E1.00193
G1 F2400
G1 X18.657 Y60.320 E1.02092
G1 F2400
G1 X18.783 Y60.320 E1.02118
G1 F2400
G1 X18.908 Y60.320 E1.02146
G1 F2400
G1 X19.033 Y60.320 E1.02174
G1 F2400
G1 X19.158 Y60.320 E1.02204
G1 F2400
G1 X19.283 Y60.320 E1.02236
G1 F2400
G1 X19.408 Y60.320 E1.02268
G1 F2400
G1 X19.533 Y60.320 E1.02302
G1 F2400
G1 X19.581 Y60.100 E1.02362
G1 F2400
G1 X19.628 Y59.879 E1.02421
G1 F2400
G1 X19.676 Y59.659 E1.02477
G1 F2400
G1 X19.723 Y59.438 E1.02531
G1 F2400
G1 X19.747 Y59.328 E1.02558
G1 X19.747 Y51.392 E1.04391
G1 E0.04391 F2400.00000
G92 E0
G1 X19.533 Y60.320 F3600.000
G1 E1.00000 F2400.00000
G1 F2400
G1 X19.581 Y60.540 E1.00060
G1 F2400
G1 X19.628 Y60.761 E1.00117
G1 F2400
G1 X19.676 Y60.981 E1.00172
G1 F2400
G1 X19.723 Y61.202 E1.00226
G1 F2400
G1 X19.747 Y61.312 E1.00251
G1 X19.747 Y68.608 E1.01902
G1 E0.01902 F2400.00000
G92 E0
G1 X8.099 Y68.608 F3600.000
G1 E1.00000 F2400.00000
G1 F2400
G1 X8.099 Y61.312 E1.01686
G1 X8.123 Y61.202 E1.01712
G1 F2400
G1 X8.170 Y60.981 E1.01766
G1 F2400
G1 X8.218 Y60.761 E1.01823
G1 F2400
G1 X8.265 Y60.540 E1.01881
G1 F2400
G1 X8.312 Y60.320 E1.01942
G1 E0.01942 F2400.00000
G92 E0
G1 X65.448 Y52.352 F3600.000
G1 E1.00000 F2400.00000
G1 F2400
G1 X56.744 Y52.352 E1.01635
G1 X56.656 Y52.376 E1.01653
G1 F2400
G1 X56.480 Y52.424 E1.01689
G1 F2400
G1 X56.305 Y52.473 E1.01726
G1 F2400
G1 X56.129 Y52.521 E1.01766
G1 F2400
G1 X55.953 Y52.569 E1.01807
G1 F2400
G1 X55.778 Y52.617 E1.01850
G1 F2400
G1 X55.690 Y52.642 E1.01873
G1 X55.641 Y52.977 E1.01956
G1 F2400
G1 X55.592 Y53.312 E1.02036
G1 F2400
G1 X55.592 Y68.608 E1.05498
G1 E0.05498 F2400.00000
G92 E0
G1 X51.870 Y52.352 F3600.000
G1 E1.00000 F2400.00000
G1 F2400
G1 X43.166 Y52.352 E1.01635
G1 X43.078 Y52.376 E1.01653
G1 F2400
G1 X42.902 Y52.424 E1.01689
G1 F2400
G1 X42.727 Y52.473 E1.01726
G1 F2400
G1 X42.551 Y52.521 E1.01766
G1 F2400
G1 X42.375 Y52.569 E1.01807
G1 F2400
G1 X42.199 Y52.617 E1.01850
G1 F2400
G1 X42.111 Y52.642 E1.01873
G1 X42.063 Y52.977 E1.01956
G1 F2400
G1 X42.014 Y53.312 E1.02036
G1 F2400
G1 X42.014 Y68.608 E1.05498
G1 E0.05498 F2400.00000
G92 E0
G1 X38.146 Y52.352 F3600.000
G1 E1.00000 F2400.00000
G1 F2400
G1 X26.882 Y52.352 E1.02116
G1 X26.794 Y52.376 E1.02134
G1 F2400
G1 X26.618 Y52.424 E1.02170
G1 F2400
G1 X26.442 Y52.473 E1.02207
G1 F2400
G1 X26.267 Y52.521 E1.02247
G1 F2400
G1 X26.091 Y52.569 E1.02288
G1 F2400
G1 X25.915 Y52.617 E1.02331
G1 F2400
G1 X25.827 Y52.642 E1.02354
G1 X25.778 Y52.977 E1.02437
G1 F2400
G1 X25.730 Y53.312 E1.02517
G1 F2400
G1 X25.730 Y59.264 E1.03864
G1 F2400
G1 X25.755 Y59.384 E1.03892
G1 F2400
G1 X25.780 Y59.504 E1.03921
G1 F2400
G1 X25.830 Y59.744 E1.03980
G1 F2400
G1 X25.855 Y59.864 E1.04011
G1 F2400
G1 X25.880 Y59.984 E1.04043
G1 F2400
G1 X25.905 Y60.104 E1.04075
G1 F2400
G1 X25.930 Y60.224 E1.04107
G1 F2400
G1 X25.885 Y60.437 E1.04165
G1 F2400
G1 X25.841 Y60.651 E1.04221
G1 F2400
G1 X25.796 Y60.864 E1.04276
G1 F2400
G1 X25.752 Y61.077 E1.04328
G1 F2400
G1 X25.730 Y61.184 E1.04353
G1 X25.730 Y66.688 E1.05623
G1 X25.754 Y66.856 E1.05662
G1 F2400
G1 X25.803 Y67.191 E1.05742
G1 F2400
G1 X25.827 Y67.358 E1.05784
G1 X26.003 Y67.407 E1.05829
G1 F2400
G1 X26.179 Y67.455 E1.05872
G1 F2400
G1 X26.354 Y67.503 E1.05913
G1 F2400
G1 X26.530 Y67.551 E1.05953
G1 F2400
G1 X26.706 Y67.600 E1.05990
G1 F2400
G1 X26.882 Y67.648 E1.06026
G1 F2400
G1 X37.634 Y67.648 E1.08046
G1 E0.08046 F2400.00000
G92 E0
G1 X36.930 Y60.224 F3600.000
G1 E1.00000 F2400.00000
G1 F2400
G1 X26.822 Y60.224 E1.01899
G1 F2400
G1 X26.703 Y60.224 E1.01923
G1 F2400
G1 X26.584 Y60.224 E1.01947
G1 F2400
G1 X26.465 Y60.224 E1.01973
G1 F2400
G1 X26.346 Y60.224 E1.02000
G1 F2400
G1 X26.227 Y60.224 E1.02028
G1 F2400
G1 X26.108 Y60.224 E1.02058
G1 F2400
G1 X25.989 Y60.224 E1.02088
G1 F2400
G1 X25.930 Y60.224 E1.02104
G1 E0.02104 F2400.00000
G92 E0
G1 X77.619 Y32.352 F3600.000
G1 E1.00000 F2400.00000
G1 F2400
G1 X68.915 Y32.352 E1.01635
G1 X68.827 Y32.376 E1.01653
G1 F2400
G1 X68.651 Y32.424 E1.01689
G1 F2400
G1 X68.476 Y32.473 E1.01726
G1 F2400
G1 X68.300 Y32.521 E1.01766
G1 F2400
G1 X68.124 Y32.569 E1.01807
G1 F2400
G1 X67.948 Y32.617 E1.01850
G1 F2400
G1 X67.861 Y32.642 E1.01873
G1 X67.812 Y32.977 E1.01956
G1 F2400
G1 X67.763 Y33.312 E1.02036
G1 F2400
G1 X67.763 Y48.608 E1.05498
G1 E0.05498 F2400.00000
G92 E0
G1 X27.233 Y48.608 F3600.000
G1 E1.00000 F2400.00000
G1 F2400
G1 X25.575 Y42.838 E1.01367
G1 F2400
G1 X23.917 Y37.069 E1.02687
G1 F2400
G1 X23.457 Y35.377 E1.03058
G1 F2400
G1 X23.102 Y34.041 E1.03340
G1 F2400
G1 X22.925 Y33.374 E1.03476
G1 X22.871 Y33.272 E1.03498
G1 F2400
G1 X22.763 Y33.068 E1.03545
G1 F2400
G1 X22.656 Y32.864 E1.03593
G1 F2400
G1 X22.548 Y32.660 E1.03644
G1 F2400
G1 X22.494 Y32.558 E1.03671
G1 X22.132 Y32.516 E1.03754
G1 F2400
G1 X21.872 Y32.496 E1.03812
G1 X21.456 Y32.539 E1.03904
G1 X21.317 Y32.795 E1.03968
G1 F2400
G1 X21.224 Y32.967 E1.04010
G1 F2400
G1 X21.131 Y33.138 E1.04049
G1 F2400
G1 X21.038 Y33.309 E1.04087
G1 F2400
G1 X20.991 Y33.394 E1.04105
G1 X20.560 Y35.120 E1.04433
G1 F2400
G1 X19.906 Y37.637 E1.04929
G1 X18.417 Y43.074 E1.06003
G1 X18.111 Y44.257 E1.06236
G1 F2400
G1 X17.824 Y45.424 E1.06458
G1 F2400
G1 X17.680 Y46.008 E1.06564
G1 X17.640 Y46.065 E1.06577
G1 F2400
G1 X17.558 Y46.180 E1.06603
G1 F2400
G1 X17.476 Y46.295 E1.06630
G1 F2400
G1 X17.395 Y46.410 E1.06658
G1 F2400
G1 X17.313 Y46.525 E1.06688
G1 F2400
G1 X17.231 Y46.640 E1.06720
G1 F2400
