; generated by Slic3r 1.3.0-dev on 2016-11-24 at 19:09:11

; external perimeters extrusion width = 0.40mm
; perimeters extrusion width = 0.48mm
; infill extrusion width = 0.48mm
; solid infill extrusion width = 0.48mm
; top infill extrusion width = 0.48mm

M107
M190 S108 ; set bed temperature and wait for it to be reached
M104 S250 ; set temperature
G92 E670
G28 ; home all axes
G1 Z5 F5000 ; lift nozzle

M109 S250 ; set temperature and wait for it to be reached
G21 ; set units to millimeters
G90 ; use absolute coordinates
M82 ; use absolute distances for extrusion
G92 E0
G1 Z0.400 F6000.000
G1 E-0.50000 F2400.00000
G92 E0
G1 X42.885 Y36.405 F6000.000
G1 E0.50000 F2400.00000
G1 F1800
G1 X44.383 Y34.620 E0.60437
G1 X45.847 Y33.392 E0.68991
G1 X47.867 Y32.225 E0.79439
G1 X49.662 Y31.572 E0.87992
G1 X50.907 Y31.250 E0.93747
G1 X109.081 Y22.029 E3.57498
G1 X110.132 Y21.946 E3.62220
G1 X176.132 Y21.946 E6.57762
G1 X178.406 Y22.343 E6.68101
G1 X180.412 Y23.487 E6.78440
G1 X181.911 Y25.243 E6.88780
G1 X182.770 Y27.651 E7.00224
G1 X192.892 Y94.233 E10.01797
G1 X193.165 Y96.832 E10.13500
G1 X193.165 Y98.235 E10.19786
G1 X192.892 Y100.834 E10.31488
G1 X192.600 Y102.207 E10.37774
G1 X191.792 Y104.693 E10.49475
G1 X191.221 Y105.975 E10.55759
G1 X189.915 Y108.238 E10.67460
G1 X189.090 Y109.373 E10.73745
G1 X187.341 Y111.315 E10.85447
G1 X186.699 Y111.939 E10.89459
G1 X147.451 Y145.281 E13.20064
G1 X147.051 Y145.596 E13.22343
G1 X145.359 Y146.825 E13.31705
G1 X144.145 Y147.526 E13.37984
G1 X142.236 Y148.377 E13.47346
G1 X141.002 Y148.789 E13.53168
G1 X101.312 Y157.884 E15.35504
G1 X99.812 Y158.054 E15.42262
G1 X33.512 Y158.054 E18.39148
G1 X31.238 Y157.657 E18.49487
G1 X29.232 Y156.512 E18.59827
G1 X27.733 Y154.757 E18.70166
G1 X26.917 Y152.597 E18.80505
G1 X26.798 Y151.339 E18.86160
G1 X26.798 Y71.339 E22.44393
G1 X27.449 Y68.456 E22.57631
G1 X41.681 Y38.533 E24.06006
G1 X41.930 Y38.059 E24.08402
G1 X42.855 Y36.457 E24.16686
G1 E23.66686 F2400.00000
G92 E0
G1 X109.041 Y89.511 F6000.000
G1 E0.50000 F2400.00000
G1 F1800
G1 X110.948 Y87.411 E0.62705
G1 X113.251 Y85.753 E0.75409
G1 X115.847 Y84.609 E0.88113
G1 X118.625 Y84.030 E1.00819
G1 X175.462 Y84.042 E3.55332
G1 F1800
G1 X178.128 Y84.609 E3.67537
G1 X180.725 Y85.753 E3.80241
G1 X183.027 Y87.411 E3.92946
G1 X184.934 Y89.511 E4.05650
G1 X186.363 Y91.962 E4.18355
G1 X187.274 Y94.767 E4.31558
G1 X187.559 Y97.590 E4.44263
G1 X187.251 Y100.410 E4.56968
G1 X186.408 Y103.002 E4.69172
G1 X185.000 Y105.465 E4.81875
G1 X183.073 Y107.616 E4.94809
G1 X143.782 Y140.994 E7.25665
G1 X141.997 Y142.293 E7.35551
G1 X139.887 Y143.246 E7.45916
G1 X137.514 Y143.750 E7.56781
G1 X135.200 Y143.738 E7.67144
G1 X132.938 Y143.246 E7.77509
G1 X130.828 Y142.293 E7.87875
G1 X129.046 Y140.998 E7.97739
G1 X127.489 Y139.287 E8.08101
G1 X126.340 Y137.320 E8.18299
G1 X107.605 Y103.088 E9.93045
G1 X106.701 Y100.300 E10.06166
G1 X106.416 Y97.477 E10.18871
G1 X106.701 Y94.767 E10.31077
G1 X107.567 Y92.065 E10.43780
G1 X109.006 Y89.560 E10.56717
G1 X109.597 Y89.961 F6000.000
G1 F1800
G1 X111.398 Y87.967 E10.68753
G1 X113.575 Y86.390 E10.80789
G1 X116.032 Y85.300 E10.92825
G1 X118.662 Y84.744 E11.04862
G1 X175.313 Y84.744 E13.58538
G1 F1800
G1 X177.943 Y85.300 E13.70575
G1 X180.432 Y86.409 E13.82778
G1 X182.605 Y87.992 E13.94814
G1 X184.400 Y89.992 E14.06850
G1 X185.726 Y92.287 E14.18719
G1 X186.568 Y94.878 E14.30920
G1 X186.845 Y97.552 E14.42956
G1 X186.560 Y100.225 E14.54993
G1 X185.741 Y102.746 E14.66861
G1 X184.400 Y105.075 E14.78896
G1 X182.592 Y107.087 E14.91009
G1 X143.330 Y140.441 E17.21697
G1 X141.607 Y141.693 E17.31234
G1 X139.631 Y142.578 E17.40931
G1 X137.477 Y143.036 E17.50793
G1 X135.349 Y143.036 E17.60322
G1 X133.230 Y142.590 E17.70017
G1 X131.250 Y141.712 E17.79714
G1 X129.496 Y140.442 E17.89410
G1 X128.023 Y138.806 E17.99270
G1 X126.965 Y136.974 E18.08745
G1 X108.247 Y102.774 E19.83323
G1 X107.408 Y100.188 E19.95498
G1 X107.131 Y97.515 E20.07534
G1 X107.415 Y94.842 E20.19571
G1 X108.234 Y92.321 E20.31439
G1 X109.564 Y90.011 E20.43373
G1 E19.93373 F2400.00000
G92 E0
G1 X109.688 Y74.732 F6000.000
G1 E0.50000 F2400.00000
G1 F1800
G1 X109.061 Y74.104 E0.53974
G1 X109.061 Y65.217 E0.93771
G1 X109.688 Y64.589 E0.97745
G1 X116.642 Y64.589 E1.28885
G1 X117.061 Y64.171 E1.31534
G1 X117.061 Y38.150 E2.48053
G1 X116.642 Y37.732 E2.50702
G1 X109.688 Y37.732 E2.81843
G1 X109.061 Y37.104 E2.85816
G1 X109.061 Y28.217 E3.25614
G1 X109.688 Y27.589 E3.29587
G1 X176.576 Y27.589 E6.29104
G1 X177.203 Y28.217 E6.33077
G1 F1800
G1 X177.203 Y37.104 E6.72875
G1 X176.576 Y37.732 E6.76848
G1 X169.621 Y37.732 E7.07988
G1 X169.203 Y38.150 E7.10638
G1 X169.203 Y64.171 E8.27157
G1 X169.621 Y64.589 E8.29806
G1 X176.576 Y64.589 E8.60946
G1 X177.203 Y65.217 E8.64920
G1 X177.203 Y74.104 E9.04717
G1 X176.576 Y74.732 E9.08691
G1 X109.748 Y74.732 E12.07938
G1 X109.984 Y74.018 F6000.000
G1 F1800
G1 X109.775 Y73.808 E12.09263
G1 X109.775 Y65.513 E12.46411
G1 X109.984 Y65.303 E12.47736
G1 X117.356 Y65.303 E12.80749
G1 X117.775 Y64.885 E12.83398
G1 X117.775 Y37.436 E14.06313
G1 X117.356 Y37.018 E14.08962
G1 X109.984 Y37.018 E14.41976
G1 X109.775 Y36.808 E14.43300
G1 X109.775 Y28.513 E14.80448
G1 X109.984 Y28.303 E14.81773
G1 X176.280 Y28.303 E17.78640
G1 F1800
G1 X176.489 Y28.513 E17.79964
G1 X176.489 Y36.808 E18.17112
G1 X176.280 Y37.018 E18.18437
G1 X168.907 Y37.018 E18.51450
G1 X168.489 Y37.436 E18.54099
G1 X168.489 Y64.885 E19.77014
G1 X168.907 Y65.303 E19.79663
G1 X176.280 Y65.303 E20.12677
G1 X176.489 Y65.513 E20.14001
G1 X176.489 Y73.808 E20.51149
G1 X176.280 Y74.018 E20.52474
G1 X110.044 Y74.018 E23.49072
G1 E22.99072 F2400.00000
G92 E0
G1 X82.842 Y51.506 F6000.000
G1 E0.50000 F2400.00000
G1 F1800
G1 X72.020 Y64.554 E1.25910
G1 X70.380 Y65.942 E1.35531
G1 X70.217 Y66.035 E1.36371
G1 X68.246 Y66.753 E1.45763
G1 X68.062 Y66.785 E1.46602
G1 X65.964 Y66.785 E1.55995
G1 X65.780 Y66.753 E1.56834
G1 X63.808 Y66.035 E1.66226
G1 X63.646 Y65.942 E1.67066
G1 X62.006 Y64.554 E1.76686
G1 X47.846 Y47.482 E2.76006
G1 X46.770 Y45.633 E2.85585
G1 X46.706 Y45.457 E2.86424
G1 X46.342 Y43.392 E2.95817
G1 X46.342 Y43.204 E2.96656
G1 X46.706 Y41.139 E3.06048
G1 X46.770 Y40.962 E3.06888
G1 X47.819 Y39.146 E3.16280
G1 X47.939 Y39.002 E3.17119
G1 X49.546 Y37.654 E3.26512
G1 X49.708 Y37.560 E3.27352
G1 X51.680 Y36.843 E3.36744
G1 X51.864 Y36.811 E3.37583
G1 X53.962 Y36.811 E3.46976
G1 X54.146 Y36.843 E3.47815
G1 F1800
G1 X56.117 Y37.560 E3.57207
G1 X56.280 Y37.654 E3.58047
G1 X57.920 Y39.042 E3.67667
G1 X59.883 Y41.408 E3.81436
G1 X59.963 Y42.023 E3.84211
G1 X59.355 Y43.358 E3.90782
G1 X58.996 Y44.987 E3.98253
G1 X58.996 Y46.808 E4.06408
G1 X59.379 Y48.511 E4.14223
G1 X60.119 Y50.090 E4.22032
G1 X61.129 Y51.418 E4.29500
G1 X62.453 Y52.554 E4.37313
G1 X63.990 Y53.379 E4.45125
G1 X65.670 Y53.853 E4.52939
G1 X67.411 Y53.957 E4.60750
G1 X69.134 Y53.682 E4.68563
G1 X70.826 Y53.008 E4.76721
G1 X72.266 Y52.022 E4.84532
G1 X73.412 Y50.811 E4.92001
G1 X74.319 Y49.321 E4.99813
G1 X74.901 Y47.594 E5.07970
G1 X75.081 Y45.859 E5.15782
G1 X74.884 Y44.126 E5.23595
G1 X74.352 Y42.546 E5.31060
G1 X74.089 Y42.093 E5.33404
G1 X74.140 Y41.412 E5.36463
G1 X76.174 Y38.973 E5.50682
G1 X77.746 Y37.654 E5.59872
G1 X77.908 Y37.560 E5.60712
G1 X79.880 Y36.843 E5.70105
G1 X80.064 Y36.811 E5.70944
G1 X82.162 Y36.811 E5.80336
G1 X82.346 Y36.843 E5.81175
G1 X84.317 Y37.560 E5.90567
G1 X84.480 Y37.654 E5.91407
G1 X86.086 Y39.002 E6.00801
G1 X86.207 Y39.146 E6.01640
G1 X87.256 Y40.962 E6.11031
G1 X87.320 Y41.138 E6.11871
G1 X87.684 Y43.204 E6.21263
G1 X87.684 Y43.392 E6.22103
G1 X87.320 Y45.457 E6.31495
G1 X87.256 Y45.633 E6.32334
G1 X86.231 Y47.408 E6.41509
G1 X82.880 Y51.460 E6.65054
G1 X82.292 Y51.050 F6000.000
G1 F1800
G1 X71.491 Y64.073 E7.40820
G1 X69.968 Y65.354 E7.49729
G1 X67.999 Y66.071 E7.59113
G1 X66.027 Y66.071 E7.67946
G1 X64.111 Y65.386 E7.77055
G1 X62.535 Y64.073 E7.86240
G1 X48.415 Y47.049 E8.85280
G1 X47.420 Y45.330 E8.94175
G1 X47.056 Y43.267 E9.03559
G1 X47.398 Y41.324 E9.12391
G1 X48.406 Y39.557 E9.21500
G1 X50.011 Y38.210 E9.30884
G1 X51.865 Y37.536 E9.39717
G1 X53.899 Y37.525 E9.48826
G1 F1800
G1 X55.868 Y38.241 E9.58210
G1 X57.391 Y39.522 E9.67119
G1 X59.202 Y41.705 E9.79820
G1 X59.228 Y41.910 E9.80744
G1 X58.674 Y43.129 E9.86739
G1 X58.282 Y44.910 E9.94905
G1 X58.282 Y46.886 E10.03756
G1 X58.699 Y48.741 E10.12267
G1 X59.504 Y50.461 E10.20772
G1 X60.607 Y51.912 E10.28935
G1 X62.050 Y53.148 E10.37443
G1 X63.725 Y54.046 E10.45951
G1 X65.553 Y54.562 E10.54460
G1 X67.450 Y54.674 E10.62967
G1 X69.326 Y54.374 E10.71477
G1 X71.163 Y53.643 E10.80329
G1 X72.731 Y52.570 E10.88836
G1 X74.031 Y51.184 E10.97346
G1 X75.004 Y49.552 E11.05853
G1 X75.586 Y47.825 E11.14016
G1 X75.799 Y45.937 E11.22524
G1 X75.586 Y43.971 E11.31377
G1 X75.004 Y42.244 E11.39539
G1 X74.818 Y41.920 E11.41212
G1 X74.835 Y41.693 E11.42231
G1 X76.658 Y39.500 E11.55000
G1 X78.211 Y38.210 E11.64041
G1 X80.127 Y37.525 E11.73150
G1 X82.099 Y37.525 E11.81983
G1 X84.014 Y38.210 E11.91091
G1 X85.580 Y39.509 E12.00201
G1 X86.606 Y41.265 E12.09308
G1 X86.970 Y43.329 E12.18692
G1 X86.627 Y45.272 E12.27525
G1 X85.628 Y47.024 E12.36561
G1 X82.331 Y51.004 E12.59701
G1 E12.09701 F2400.00000
G92 E0
G1 X99.697 Y40.593 F6000.000
G1 E0.50000 F2400.00000
G1 F1800
G1 X100.224 Y40.593 E0.52360
G1 X100.640 Y40.237 E0.54811
G1 X103.301 Y40.659 E0.66877
G1 X103.462 Y40.711 E0.67632
G1 X106.312 Y42.163 E0.81955
G1 X106.536 Y42.307 E0.83148
G1 X108.868 Y44.638 E0.97913
G1 X108.967 Y44.775 E0.98669
G1 X110.464 Y47.713 E1.13433
G1 X110.516 Y47.873 E1.14188
G1 X111.031 Y51.130 E1.28954
G1 X111.031 Y51.298 E1.29709
G1 X110.516 Y54.555 E1.44473
G1 X110.464 Y54.715 E1.45229
G1 X108.967 Y57.653 E1.59994
G1 X108.867 Y57.790 E1.60749
G1 X106.536 Y60.121 E1.75514
G1 X106.400 Y60.220 E1.76269
G1 X103.462 Y61.717 E1.91034
G1 X103.301 Y61.769 E1.91789
G1 X100.640 Y62.191 E2.03854
G1 X100.224 Y61.835 E2.06306
G1 X99.697 Y61.835 E2.08665
G1 X99.280 Y62.191 E2.11118
G1 X96.619 Y61.769 E2.23183
G1 X96.459 Y61.717 E2.23938
G1 X93.521 Y60.220 E2.38703
G1 X93.385 Y60.121 E2.39458
G1 X91.053 Y57.790 E2.54223
G1 X90.954 Y57.653 E2.54978
G1 X89.457 Y54.715 E2.69743
G1 X89.405 Y54.555 E2.70498
G1 X88.889 Y51.298 E2.85263
G1 X88.889 Y51.130 E2.86018
G1 X89.405 Y47.873 E3.00783
G1 X89.457 Y47.713 E3.01538
G1 X90.954 Y44.775 E3.16303
G1 X91.053 Y44.638 E3.17058
G1 X93.384 Y42.307 E3.31823
G1 X93.521 Y42.208 E3.32578
G1 X96.310 Y40.786 E3.46597
G1 X96.459 Y40.711 E3.47343
G1 X96.619 Y40.659 E3.48098
G1 X99.280 Y40.237 E3.60163
G1 X99.651 Y40.554 E3.62347
G1 X99.233 Y41.136 F6000.000
G1 F1800
G1 X99.697 Y41.532 E3.65078
G1 X100.224 Y41.532 E3.67438
G1 X100.853 Y40.994 E3.71146
G1 X103.134 Y41.355 E3.81485
G1 X106.071 Y42.851 E3.96244
G1 X108.356 Y45.149 E4.10755
G1 X109.819 Y48.040 E4.25265
G1 X110.317 Y51.186 E4.39527
G1 X109.802 Y54.441 E4.54285
G1 X108.323 Y57.324 E4.68796
G1 X106.025 Y59.610 E4.83306
G1 X103.187 Y61.055 E4.97568
G1 X100.853 Y61.434 E5.08156
G1 X100.224 Y60.896 E5.11864
G1 X99.697 Y60.896 E5.14224
G1 X99.067 Y61.434 E5.17933
G1 X96.786 Y61.073 E5.28272
G1 X93.850 Y59.577 E5.43031
G1 X91.565 Y57.279 E5.57541
G1 X90.101 Y54.388 E5.72051
G1 X89.603 Y51.242 E5.86313
G1 X90.101 Y48.040 E6.00823
G1 X91.598 Y45.104 E6.15582
G1 X93.895 Y42.818 E6.30093
G1 X96.733 Y41.373 E6.44354
G1 X99.067 Y40.994 E6.54942
G1 F1800
G1 X99.187 Y41.097 E6.55651
G1 E6.05651 F2400.00000
G92 E0
G1 X99.560 Y48.656 F6000.000
G1 E0.50000 F2400.00000
G1 F1800
G1 X100.360 Y48.657 E0.53582
G1 F1800
G1 X100.708 Y49.225 E0.56566
G1 X101.166 Y49.458 E0.58868
G1 X101.257 Y49.524 E0.59371
G1 X101.650 Y49.917 E0.61858
G1 X101.716 Y50.008 E0.62361
G1 X101.968 Y50.502 E0.64847
G1 X102.003 Y50.609 E0.65351
G1 X102.090 Y51.158 E0.67837
G1 X102.090 Y51.270 E0.68341
G1 X102.003 Y51.819 E0.70827
G1 X101.968 Y51.926 E0.71330
G1 X101.716 Y52.420 E0.73817
G1 X101.650 Y52.511 E0.74320
G1 X101.257 Y52.904 E0.76806
G1 X101.166 Y52.970 E0.77310
G1 X100.672 Y53.222 E0.79796
G1 X100.565 Y53.257 E0.80299
G1 X100.016 Y53.344 E0.82786
G1 X99.904 Y53.344 E0.83289
G1 X99.356 Y53.257 E0.85775
G1 X99.249 Y53.222 E0.86279
G1 X98.754 Y52.970 E0.88765
G1 X98.663 Y52.904 E0.89269
G1 X98.270 Y52.511 E0.91755
G1 X98.204 Y52.420 E0.92258
G1 X97.952 Y51.926 E0.94745
G1 X97.918 Y51.819 E0.95248
G1 X97.831 Y51.270 E0.97734
G1 X97.831 Y51.158 E0.98238
G1 X97.918 Y50.609 E1.00724
G1 X97.952 Y50.502 E1.01227
G1 X98.204 Y50.008 E1.03714
G1 X98.270 Y49.917 E1.04217
G1 X98.663 Y49.524 E1.06703
G1 X98.754 Y49.458 E1.07207
G1 X99.212 Y49.225 E1.09509
G1 X99.529 Y48.708 E1.12225
G1 X99.789 Y49.732 F6000.000
G1 F1800
G1 X100.132 Y49.732 E1.13760
G1 X100.741 Y50.043 E1.16824
G1 X100.832 Y50.109 E1.17328
G1 X101.065 Y50.342 E1.18801
G1 X101.131 Y50.433 E1.19304
G1 X101.281 Y50.726 E1.20778
G1 X101.315 Y50.833 E1.21281
G1 X101.367 Y51.158 E1.22754
G1 X101.367 Y51.270 E1.23258
G1 X101.315 Y51.595 E1.24731
G1 X101.281 Y51.702 E1.25235
G1 X101.131 Y51.995 E1.26708
G1 X101.065 Y52.086 E1.27211
G1 X100.832 Y52.319 E1.28685
G1 X100.741 Y52.385 E1.29188
G1 X100.448 Y52.534 E1.30661
G1 X100.341 Y52.569 E1.31165
G1 X100.016 Y52.621 E1.32638
G1 X99.904 Y52.621 E1.33141
G1 X99.579 Y52.569 E1.34615
G1 X99.472 Y52.534 E1.35118
G1 X99.179 Y52.385 E1.36591
G1 X99.088 Y52.319 E1.37095
G1 X98.855 Y52.086 E1.38568
G1 X98.789 Y51.995 E1.39071
G1 X98.640 Y51.702 E1.40545
G1 X98.605 Y51.595 E1.41048
G1 X98.554 Y51.270 E1.42522
G1 X98.554 Y51.158 E1.43025
G1 X98.605 Y50.833 E1.44498
G1 X98.640 Y50.726 E1.45002
G1 X98.789 Y50.433 E1.46475
G1 X98.855 Y50.342 E1.46978
G1 X99.088 Y50.109 E1.48452
G1 X99.179 Y50.043 E1.48955
G1 X99.735 Y49.760 E1.51751
G1 E1.01751 F2400.00000
G92 E0
G1 X99.789 Y70.268 F6000.000
G1 E0.50000 F2400.00000
G1 F1800
G1 X100.256 Y70.268 E0.52092
G1 X100.884 Y70.896 E0.56066
G1 F1800
G1 X100.884 Y151.783 E4.18273
G1 X100.256 Y152.411 E4.22247
G1 X33.069 Y152.411 E7.23106
G1 X32.441 Y151.783 E7.27080
G1 X32.441 Y70.896 E10.89287
G1 X33.069 Y70.268 E10.93261
G1 X99.729 Y70.268 E13.91759
G1 X99.789 Y70.982 F6000.000
G1 F1800
G1 X99.960 Y70.982 E13.92527
G1 F1800
G1 X100.169 Y71.192 E13.93852
G1 X100.169 Y151.487 E17.53409
G1 X99.960 Y151.697 E17.54734
G1 X33.364 Y151.697 E20.52944
G1 X33.155 Y151.487 E20.54268
G1 X33.155 Y71.192 E24.13826
G1 X33.364 Y70.982 E24.15151
G1 X99.729 Y70.982 E27.12325
G1 E26.62325 F2400.00000
G92 E0
G1 X101.360 Y60.587 F6000.000
G1 E0.50000 F2400.00000
G1 F1800
G1 X101.360 Y57.683 E0.63007
G1 X101.296 Y57.280 E0.64833
G1 X101.097 Y56.888 E0.66801
G1 X100.786 Y56.577 E0.68770
G1 X100.394 Y56.378 E0.70738
G1 X99.960 Y56.309 E0.72706
G1 X99.526 Y56.378 E0.74675
G1 X99.134 Y56.577 E0.76643
G1 X98.824 Y56.888 E0.78612
G1 X98.624 Y57.280 E0.80580
G1 X98.560 Y57.683 E0.82406
G1 X98.560 Y60.587 E0.95413
G1 X96.995 Y60.339 E1.02508
G1 X94.320 Y58.977 E1.15951
G1 X92.198 Y56.854 E1.29394
G1 X90.835 Y54.179 E1.42836
G1 X90.365 Y51.214 E1.56279
G1 X90.835 Y48.249 E1.69721
G1 X92.198 Y45.574 E1.83164
G1 X94.320 Y43.451 E1.96607
G1 X96.995 Y42.089 E2.10049
G1 X98.560 Y41.841 E2.17145
G1 X98.560 Y48.707 E2.47892
G1 X98.253 Y48.864 E2.49437
G1 X97.610 Y49.507 E2.53507
G1 X97.197 Y50.316 E2.57577
G1 X97.055 Y51.214 E2.61647
G1 X97.203 Y52.145 E2.65869
G1 X97.612 Y52.923 E2.69806
G1 X98.251 Y53.562 E2.73852
G1 X99.029 Y53.971 E2.77788
G1 X99.960 Y54.119 E2.82011
G1 X100.858 Y53.977 E2.86081
G1 X101.668 Y53.564 E2.90150
G1 X102.310 Y52.922 E2.94220
G1 X102.723 Y52.112 E2.98290
G1 X102.865 Y51.214 E3.02360
G1 X102.718 Y50.283 E3.06583
G1 X102.309 Y49.505 E3.10519
G1 X101.668 Y48.864 E3.14577
G1 X101.360 Y48.707 E3.16122
G1 X101.360 Y41.841 E3.46870
G1 X102.925 Y42.089 E3.53965
G1 X105.600 Y43.451 E3.67408
G1 X107.723 Y45.574 E3.80850
G1 X109.086 Y48.249 E3.94293
G1 X109.555 Y51.214 E4.07735
G1 X109.086 Y54.179 E4.21178
G1 X107.732 Y56.836 E4.34529
G1 X105.600 Y58.977 E4.48061
G1 X102.925 Y60.339 E4.61501
G1 X101.419 Y60.578 E4.68328
G1 X101.517 Y60.219 F6000.000
G1 X102.074 Y59.751 F6000.000
G1 F1800
G1 X102.074 Y57.626 E4.77843
G1 X101.984 Y57.056 E4.80426
G1 X101.682 Y56.463 E4.83408
